**kern	**dynam	**kern	**dynam	**kern	**dynam	**kern	**dynam	**mxhm
*part4	*part4	*part3	*part3	*part2	*part2	*part1	*part1	*part1
*staff4	*	*staff3	*	*staff2	*	*staff1	*	*
*I"Cello	*	*I"Viola	*	*I"2nd Violin	*	*I"1st Violin	*	*
*clefF4	*	*clefC3	*	*clefG2	*	*clefG2	*	*
*k[f#c#]	*	*k[f#c#]	*	*k[f#c#]	*	*k[f#c#]	*	*
*M2/4	*	*M2/4	*	*M2/4	*	*M2/4	*	*
*b:	*	*b:	*	*b:	*	*b:	*	*
!	!	!	!	!	!	!LO:TX:a:B:t=Larghetto espressivo	!	!
(8A#	<	([8f#	<	(8c#	<	(16.f#LL	<	V6
.	.	.	.	.	.	32ff#JJk	.	.
=1	=1	=1	=1	=1	=1	=1	=1	=1
8BL	.	16.f#LL]	.	8dL	.	8ddL	.	i
.	.	32gJK	.	.	.	.	.	.
8c#J)	[ >	8f#J)	[ >	8eJ)	[ >	8a#J)	[ >	V43
8r	]	8r	]	8r	]	8r	]	.
(8A#	<	([8f#	<	(8c#	<	(16.f#LL	<	V6
.	.	.	.	.	.	32ff#JJk	.	.
=2	=2	=2	=2	=2	=2	=2	=2	=2
8BL	.	16.f#LL]	.	8dL	.	8ddL	.	i
.	.	32gJK	.	.	.	.	.	.
8c#J)	[ >	8f#J)	[ >	8eJ)	[ >	8a#J)	[ >	V43
8r	]	8r	]	8r	]	8r	]	.
!LO:TX:a:i:t=cresc.	!	!LO:TX:b:i:t=cresc.	!	!LO:TX:b:i:t=cresc.	!	!LO:TX:b:i:t=cresc.	!	!
8d#	.	8f#	.	([8b	.	(16.bLL	.	V/iv
.	.	.	.	.	.	32bbJJk)	.	.
=3	=3	=3	=3	=3	=3	=3	=3	=3
(8eL	.	(8gL	.	16.bLL]	.	(16aaLL	.	iv(4)
.	.	.	.	.	.	16ggJ	.	iv
.	.	.	.	32eeJK	.	.	.	.
8f#J	.	8bJ)	.	8ddJ)	.	8ff#J)	.	V(64)
4g)	.	(8bL	.	(16ddLL	.	[8ee#L	.	.Ger6
.	.	.	.	16b	.	.	.	.
.	.	8ee#J)	.	16a#	.	(32ee#LL]	.	.
.	.	.	.	.	.	32ddd	.	.
.	.	.	.	16bJJ)	.	32ccc#	.	.
.	.	.	.	.	.	32bbJJJ)	.	.
=4	=4	=4	=4	=4	=4	=4	=4	=4
!LO:TX:a:i:t=dim.	!	!LO:TX:b:i:t=dim.	!	!LO:TX:b:i:t=dim.	!	!LO:TX:b:i:t=dim.	!	!
8f#L	.	8.ff#L	.	[8ddL	.	[8bbL	.	V[V(64)
8f#J	.	.	.	(32ddLL]	.	(32bbLL]	.	.
.	.	.	.	32cc#	.	32aa#	.	.
.	.	(32ff#LL	.	32dd	.	32bb	.	.
.	.	32ddJJJ)	.	32bJJJ)	.	32ee#JJJ)	.	#viio43/V
8f#L	.	(16ddLL	.	(16bLL	.	(16ee#LL	.	V(+764)
.	.	16cc#)	.	16a#JJ)	.	16ff#JJ)	.	V]
(32BLL	.	(32bL	.	8r	.	8r	.	#viio7/V
32A#	.	32a#	.	.	.	.	.	.
32B	.	32b	.	.	.	.	.	.
32E#JJJ)	.	32e#JJJ)	.	.	.	.	.	.
=5	=5	=5	=5	=5	=5	=5	=5	=5
(16E#LL	.	(16e#LL	.	4r	.	8r	.	.
16F#J)	.	16f#)	.	.	.	.	.	.
!LO:TX:b:i:t=cresc.	!	!LO:TX:b:i:t=cresc.	!	!	!	!LO:TX:b:i:t=cresc.	!	!
(8AA#J	.	(16.F#	.	.	.	[8ff#	.	V6
.	.	32f#JJk)	.	.	.	.	.	.
!	!	!	!	!LO:TX:b:i:t=cresc.	!	!	!	!
8BBL	.	(8dL	.	16.gLL	.	(16ff#LL]	.	VI6(7)
.	.	.	.	.	.	16gg)	.	VI6
.	.	.	.	32ggJK	.	.	.	.
[8C#J)	>]	[8F#J) [8eX	>]	(8ggJ	>]	(16.gg	>	V7(9)
.	.	.	.	.	.	32gggJJk)	]]	.
=6	=6	=6	=6	=6	=6	=6	=6	=6
(8C#L]	p	8F#L] 8e]	p	16ee#LL	p	(16eee#LL	p	V43
.	.	.	.	16ff#JJ)	.	16fff#J)	.	.
!LO:TX:b:i:t=cresc.	!	!LO:TX:b:i:t=cresc.	!	!	!	!LO:TX:b:i:t=cresc.	!	!
8AA#J	.	(16.F#L	.	8r	.	[8ff#J	.	V6
.	.	32f#JJk)	.	.	.	.	.	.
!	!	!	!	!LO:TX:b:i:t=cresc.	!	!	!	!
8BBL	.	(8dL	.	(16.gLL	.	(16ff#LL]	.	VI6(7)
.	.	.	.	.	.	16gg)	.	VI6
.	.	.	.	32ggJK)	.	.	.	.
[8C#J)	>]	[8F#J) [8e	>]	(8ggJ	>]	(16.gg	>	V7(9)
.	.	.	.	.	.	32gggJJk)	]]	.
=7	=7	=7	=7	=7	=7	=7	=7	=7
8C#]	p	8F#] 8e]	p	(16ee#LL)	p	(16eee#LL	p	V43
.	.	.	.	16ff#JJ)	.	16fff#JJ)	.	.
4C#	.	4F# 4e	.	8r	.	8r	.	.
.	.	.	.	(16ee#LL	.	(16eee#LL	.	.
.	.	.	.	16ff#JJ)	.	16fff#JJ)	.	.
[8C#	.	[8F# [8e	.	8r	.	8r	.	.
=8||	=8||	=8||	=8||	=8||	=8||	=8||	=8||	=8||
*M6/8	*	*M6/8	*	*M6/8	*	*M6/8	*	*
!	!	!	!	!	!	!LO:TX:a:i:t=cresc.	!	!
!LO:TX:b:i:t=cresc.	!	!LO:TX:b:i:t=cresc.	!	!LO:TX:b:i:t=cresc.	!	!LO:TX:a:B:t=Allegretto agitato.	!	!
4C#]	.	4F#] 4e]	.	(8ee#L	.	(8eee#L	.	.
.	.	.	.	8ff#J)	.	8fff#J)	.	.
8C#	.	8F# 8e	.	8r	.	8r	.	.
4r	.	4r	.	(8ee#L	.	(8eee#L	.	.
.	.	.	.	8ff#J)	.	8fff#J)	.	.
8C#	.	8F# 8e	.	8r	.	8r	.	.
=9	=9	=9	=9	=9	=9	=9	=9	=9
8r	.	8r	.	(16ee#LL	.	(16eee#LL	.	.
.	.	.	.	16ff#)	.	16fff#)	.	.
8C#L	.	8F#L 8e	.	(16ee#	.	(16eee#	.	.
.	.	.	.	16ff#)	.	16fff#)	.	.
8C#J	.	8F#J 8e	.	(16ee#	.	(16eee#	.	.
.	.	.	.	16ff#JJ)	.	16fff#JJ)	.	.
8C#L	.	8F#L 8e	.	(16ee#LL	.	(16eee#LL	.	V43
.	.	.	.	16ff#)	.	16fff#)	.	.
8BB	.	8F# 8d	.	(16ee#	.	(16eee#	.	i
.	.	.	.	16ff#)	.	16fff#)	.	.
8AA#J	.	8F#J 8c#	.	(16ee#	.	(16eee#	.	V6
.	.	.	.	16ff#JJ)	.	16fff#JJ)	.	.
=10	=10	=10	=10	=10	=10	=10	=10	=10
8BBL	p	8F#L 8d	p	(16ff#LL	p	(16fff#LL	p	i
.	.	.	.	16ddJJ)	.	16dddJJ)	.	.
(8B	.	(8d	.	8r	.	8r	.	.
8dJ)	.	8f#J)	.	8r	.	8r	.	.
8r	.	8r	.	(16ddLL	.	(16dddLL	.	.
.	.	.	.	16bJJ)	.	16bbJJ)	.	.
(8BL	.	(8dL	.	8r	.	8r	.	.
8dJ)	.	8f#J)	.	8r	.	8r	.	.
=11	=11	=11	=11	=11	=11	=11	=11	=11
8r	.	8r	.	(16ff#LL	.	(16fff#LL	.	.
.	.	.	.	16ddJJ)	.	16dddJJ)	.	.
(8BL	.	(8dL	.	8r	.	8r	.	.
8dJ)	.	8f#J)	.	8r	.	8r	.	.
8r	.	8r	.	(16ddLL	.	(16dddLL	.	.
.	.	.	.	16bJ)	.	16bbJ)	.	.
(8BL	.	(8dL	.	8r	.	8r	.	.
8dJ)	.	8f#J)	.	(8bJ	<	(8bbJ	<	.
=12	=12	=12	=12	=12	=12	=12	=12	=12
8r	.	8r	.	8eeL	.	8eeeL	.	iv
(8BL	<	(8eL	<	8ff#)	.	8fff#)	.	.
8eJ)	[ >	8gJ)	[ >	8gg'J	.	8ggg'J	.	.
8r	]	8r	]	4ff#	[ >	4fff#	[ >	i
(8BL	.	(8dL	.	.	.	.	.	.
8dJ)	.	8f#J)	.	(8b	] <	(8bb	] <	.
=13	=13	=13	=13	=13	=13	=13	=13	=13
8r	.	8r	.	8eeL	.	8eeeL	.	iv
(8BL	<	(8eL	<	8ff#)	.	8fff#)	.	.
8eJ)	[ >	8gJ)	[ >	8gg'J	.	8ggg'J	.	.
8r	]	8r	]	4ff#	[ >	4fff#	[ >	i
(8BL	.	(8dL	.	.	.	.	.	.
8dJ)	.	8f#J)	.	8b	]	8bb	]	.
=14	=14	=14	=14	=14	=14	=14	=14	=14
4r	.	8F#L	.	(8ddL	.	(8bbL	.	V(64)
.	.	(8F#	.	8cc#	.	8aa#	.	V
8r	.	8f#J)	.	8bJ)	.	8bbJ	.	V(64)
4r	.	8r	.	(8bL	.	8dddL	.	.
.	.	(8F#L	.	8a#	.	8ccc#	.	V
(8dd	.	8f#J)	.	8bJ)	.	8dddJ)	.	V(64)
=15	=15	=15	=15	=15	=15	=15	=15	=15
.	.	.	.	.	.	16qqccc#/	.	V6
8cc#L	.	8r	.	(8a#L	.	(4fff#	.	.
8a#	.	(8F#L	.	8cc#	.	.	.	.
8cc#J)	.	8f#J)	.	8a#J)	.	16eeeLL	.	.
.	.	.	.	.	.	16ccc#JJ)	.	.
8bL	.	8r	.	8ddL	.	(8eeeL	.	i(4)
8B	.	(8F#L	.	8d	.	8ddd)	.	i
8BJ	.	8f#J)	.	8dJ	.	8bb'J	.	.
=16	=16	=16	=16	=16	=16	=16	=16	=16
!LO:TX:a:i:t=cresc.	!	!LO:TX:b:i:t=cresc.	!	!LO:TX:b:i:t=cresc.	!	!LO:TX:b:i:t=cresc.	!	!
(8F#L	.	8c#L	.	(8eL	.	(8bbML	.	V7(4)
8G	.	(8c#	.	8ee	.	8aa#	.	V7(9)
8F#J	.	8BJ)	.	8ddJ)	.	8bbJ	.	V7(4)
8BBL	.	(8BL	.	(8ddL	.	8dddML	.	i
8AA#	.	8e	.	8gg	.	8ccc#	.	#viio
8BBJ)	.	8dJ)	.	8ff#J)	.	8dddJ)	.	i
=17	=17	=17	=17	=17	=17	=17	=17	=17
.	.	.	.	.	.	16qqccc#/	.	V6
(8AA#L	.	(8c#L	.	(8cc#L	.	(4fff#	.	.
8GG	.	8a#	.	8aa#	.	.	.	.
8FF#J	.	16cc#L	.	16ccc#L	.	16eeeLL	.	V7
.	.	16a#JJ)	.	16aa#JJ	.	16ccc#JJ)	.	.
8BBL	.	(8a#L	.	8ccc#L	.	(8eeeL	.	i(974)
8D	.	8ff#)	.	8bb)	.	8ddd)	.	i6
8E#J)	.	8BJ	.	8dJ	.	8bb'J	.	#viio7/V
=18	=18	=18	=18	=18	=18	=18	=18	=18
16F#LL	f	16A#LL	f	16c#LL	f	(16fff#LL	f	V
16F#	.	16A#	.	16c#	.	16eee	.	.
16F#	.	16B	.	16d	.	16ccc#	.	.
16F#	.	16B	.	16d	.	16ddd	.	.
16F#	.	16B	.	16d	.	16aa#	.	.
16F#JJ	.	16BJJ	.	16dJJ	.	16bbJJ	.	.
16F#LL	.	16A#LL	.	16c#LL	.	16ee#LL	.	.
16F#	.	16A#	.	16c#	.	16ff#	.	.
16F#	.	16B	.	16d	.	16cc#	.	.
16F#	.	16B	.	16d	.	16dd	.	.
16F#	.	16B	.	16d	.	16a#	.	.
16F#JJ	.	16BJJ	.	16dJJ	.	16bJJ)	.	.
=19	=19	=19	=19	=19	=19	=19	=19	=19
4.F#	.	4.A#	.	4.c#	.	(16f#LL	.	.
.	.	.	.	.	.	16g	.	.
.	.	.	.	.	.	16g#	.	.
.	.	.	.	.	.	16a	.	.
.	.	.	.	.	.	16a#	.	.
.	.	.	.	.	.	16bJJ	.	.
4r	.	4r	.	4r	.	16b#XLL	.	.
.	.	.	.	.	.	16cc#	.	.
.	.	.	.	.	.	16dd	.	.
.	.	.	.	.	.	16dd#	.	.
8r	.	8r	.	8r	.	16ee	.	.
.	.	.	.	.	.	16ee#JJ	.	.
=20	=20	=20	=20	=20	=20	=20	=20	=20
4r	.	4r	.	4r	.	16ff#LL	.	.
.	.	.	.	.	.	16gg	.	.
.	.	.	.	.	.	16gg#	.	.
.	.	.	.	.	.	16aa	.	.
8r	.	8r	.	8r	.	16aa#	.	.
.	.	.	.	.	.	16bbJJ)	.	.
!	!	!	!	!	!	!LO:TX:a:i:t=cresc.	!	!
8r	.	8r	.	8r	.	(16ccc#LL	.	.
.	.	.	.	.	.	16ddd	.	.
!LO:TX:a:i:t=cresc.	!	!LO:TX:b:i:t=cresc.	!	!LO:TX:b:i:t=cresc.	!	!	!	!
16f#LL	.	16f#LL	.	16ff#LL	.	16ddd#	.	.
16f#	.	16f#	.	16ff#	.	16eee	.	.
16f#	.	16f#	.	16ff#	.	16eee#	.	.
16f#JJ	.	16f#JJ	.	16ff#JJ	.	16fff#JJ)	.	.
=21	=21	=21	=21	=21	=21	=21	=21	=21
4g	ff	4g	ff	4gg	ff	4ggg	ff	VI
4r	.	4r	.	4r	.	4r	.	.
4r	.	4r	.	4r	.	4r	.	.
=22	=22	=22	=22	=22	=22	=22	=22	=22
4r	.	4r	.	2.cc#;	pp	2.ee;	pp	#viio7
8r	.	8r	.	.	.	.	.	.
4.A#;	pp	4.g;	pp	.	.	.	.	.
=23	=23	=23	=23	=23	=23	=23	=23	=23
!	!	!	!	!	!	!LO:TX:b:i:t=espress.	!	!
8BBL	.	(16f#LL	.	4.d 4.b	.	(16ff#LL	.	i[i6
.	.	16dJJ)	.	.	.	16ddJJ)	.	.
(8BB	.	8r	.	.	.	8r	.	.
8DJ)	.	8r	.	.	.	(16ddLL	.	.
.	.	.	.	.	.	16bJJ)	.	.
8r	.	(16dLL	.	(16bbLL	.	8r	.	.
.	.	16BJJ)	.	16ddd	.	.	.	.
(8BBL	.	8r	.	16ccc#	.	8r	.	.
.	.	.	.	16bb	.	.	.	.
8DJ)	.	8r	.	16aa#	.	8r	.	.
.	.	.	.	16bbJJ)	.	.	.	.
=24	=24	=24	=24	=24	=24	=24	=24	=24
8r	.	(16f#LL	.	4.d 4.b	.	(16ff#LL	.	.
.	.	16dJJ)	.	.	.	16ddJJ)	.	.
(8BBL	.	8r	.	.	.	8r	.	.
8DJ)	.	8r	.	.	.	8r	.	.
8r	.	(16dLL	.	(16bbLL	.	(16ddLL	.	i
.	.	16BJ)	.	16ddd	.	16bJ)	.	.
(8BBL	.	8r	.	16ccc#	.	8r	.	.
.	.	.	.	16bb	.	.	.	.
8DJ)	.	(8BJ	<	16aa#	.	(8bJ	<	.
.	.	.	.	16bbJJ)	.	.	.	.
=25	=25	=25	=25	=25	=25	=25	=25	=25
8r	.	8eL	.	8r	.	8eeL	.	iv
(8BBL	.	8f#)	.	(16aa#LL	.	8ff#)	.	.
.	.	.	.	16eee	.	.	.	.
8EJ)	.	8g'J	[ >	16ccc#	.	8gg'J	[ >	.
.	.	.	.	16aa#JJ)	.	.	.	.
8r	.	4f#	.	8r	.	4ff#	.	i6
(8BBL	.	.	.	(16bbLL	.	.	.	.
.	.	.	.	16fff#	.	.	.	.
8DJ)	.	(8B	<[	16ddd	.	(8b	<[	i
.	.	.	.	16bbJJ)	.	.	.	.
=26	=26	=26	=26	=26	=26	=26	=26	=26
8r	.	8eL	.	8r	.	8eeL	.	iv
(8BBL	.	8f#)	.	(16aa#LL	.	8ff#)	.	.
.	.	.	.	16eee	.	.	.	.
8EJ)	.	8g'J	.	16ccc#	.	8gg'J	.	.
.	.	.	.	16aa#JJ)	.	.	.	.
8r	.	4f#	[ >	8r	.	4ff#	[ >	i6]
(8BBL	.	.	.	(16bbLL	.	.	.	.
.	.	.	.	16fff#	.	.	.	.
8DJ)	.	8B	]	16ddd	.	8b	]	.
.	.	.	.	16bbJJ)	.	.	.	.
=27	=27	=27	=27	=27	=27	=27	=27	=27
8FF#L	.	(8BL	.	8r	.	(8bL	.	V[V(64)
(8FF#	.	8A#	.	(16ccc#LL	.	8a#	.	V
.	.	.	.	16fff#J	.	.	.	.
8F#J)	.	8BJ	.	8ddd'J)	.	8bJ	.	V(64)
8r	.	8dL	.	8r	.	8ddL	.	.
(8FF#L	.	8c#	.	(16aa#LL	.	8cc#	.	V
.	.	.	.	16fff#J	.	.	.	.
8F#J)	.	8dJ)	.	8bb'J)	.	8ddJ)	.	V(64)
=28	=28	=28	=28	=28	=28	=28	=28	=28
8r	.	(4f#	.	(8aa#	.	(4ff#	.	V7
(8FF#L	.	.	.	[4aaa#)	.	.	.	.
8F#J)	.	16eLL	.	.	.	16eeLL	.	.
.	.	16c#JJ)	.	.	.	16cc#JJ)	.	.
8r	.	(8eL	.	(8aaa#L]	.	(8eeL	.	.
(8FF#L	.	8d)	.	8bbb)	.	8dd)	.	V(64)
8F#J)	.	8B'J	.	8ddd'J	.	8b'J	.	.
=29	=29	=29	=29	=29	=29	=29	=29	=29
8r	.	(8BL	.	8r	.	(8bL	.	.
(8FF#L	.	8A#	.	(16ccc#LL	.	8a#	.	V
.	.	.	.	16fff#J)	.	.	.	.
8F#J)	.	8BJ	.	8ddd'J	.	8bJ	.	V(64)
8r	.	8dL	.	8r	.	8ddL	.	.
(8FF#L	.	8c#)	.	(16aa#LL	.	8cc#J)	.	V]
.	.	.	.	16fff#J)	.	.	.	.
8F#J)	.	(16f#L	.	(8dd#J	.	8r	.	#viio/iv
.	.	16aJJ)	.	.	.	.	.	.
=30	=30	=30	=30	=30	=30	=30	=30	=30
!	!	!LO:TX:b:i:t=cresc.	!	!LO:TX:b:i:t=cresc.	!	!	!	!
4r	.	(16gLL	.	8ff#L	.	4r	.	VI7(7)
.	.	16b	.	.	.	.	.	.
.	.	16g	.	8ee#	.	.	.	.
.	.	16b	.	.	.	.	.	.
8r	.	16g#	.	8ee#J	.	8r	.	#viio6/v
.	.	16bJJ)	.	.	.	.	.	.
4r	.	(16aLL	.	8gg#L	.	4r	.	v6
.	.	16cc#	.	.	.	.	.	.
.	.	16a	.	8ff#)	.	.	.	.
.	.	16cc#J)	.	.	.	.	.	.
!LO:TX:b:i:t=cresc.	!	!	!	!	!	!LO:TX:b:i:t=cresc.	!	!
8AA#	.	[8F#J	.	16c#L	.	(8ff##X	.	V6(+#1)
.	.	.	.	16f#JJ	.	.	.	.
=31	=31	=31	=31	=31	=31	=31	=31	=31
8BBL	.	8F#L]	.	16dLL	.	8aaL	.	i(7)
.	.	.	.	16f#	.	.	.	.
(8BB	.	16F#L	.	16d	.	8gg#	.	i(#6)
.	.	16f#	.	16f#	.	.	.	.
8C#J	sf	16F#	sf	16e	sf	8aa#J	sf	V64
.	.	16f#JJ	.	16f#JJ	.	.	.	.
8DL)	.	16F#LL	.	16f#LL	.	8ccc#L	.	i6(9)
.	.	16f#	.	16b	.	.	.	.
(8D	.	16F#	.	16f#	.	8bb	.	i6
.	.	16f#	.	16b	.	.	.	.
8D#J	sf	16F#	sf	16f#	sf	8bb#XJ	sf	v.#viio6/V
.	.	16f#JJ	.	16b#XJJ	.	.	.	.
=32	=32	=32	=32	=32	=32	=32	=32	=32
8E#L)	.	(16G#LL	.	(16g#LL	.	8dddL	.	V6(9)
.	.	16c#	.	16cc#	.	.	.	.
(8E#	.	16G#	.	16g#	.	8ccc#	.	V6
.	.	16c#	.	16cc#	.	.	.	.
8F#J)	sf	16A	sf	16a	sf	8dddJ)	sf	i(9)
.	.	16c#JJ)	.	16cc#JJ)	.	.	.	.
!	!	!	!	!	!LO:DY:a	!	!	!
4FF# 4F#	ff	16ALL	ff	16b#XLL 16dd#	ff ff	4dd# 4ddd#	.	#viio43/V
.	.	16B#X	.	16d#	.	.	.	.
.	.	16d#	.	16f#	.	.	.	.
.	.	16d#	.	16f#	.	.	.	.
8r	.	16d#	.	16f#	.	8r	.	.
.	.	16d#JJ	.	16f#JJ	.	.	.	.
=33	=33	=33	=33	=33	=33	=33	=33	=33
4r	.	16d#LL	.	16f#LL	.	4r	.	.
.	.	16B#X	.	16d#	.	.	.	.
.	.	16d#	.	16f#	.	.	.	.
.	.	16d#	.	16f#	.	.	.	.
8r	.	16d#	.	16f#	.	8r	.	.
.	.	16d#JJ	.	16f#JJ	.	.	.	.
.	.	.	.	.	.	16qqaa/	.	.
4FF# 4F#	.	16d#LL	.	16f#LL	.	4aaa	.	.
.	.	16B#	.	16d#	.	.	.	.
.	.	16d#	.	16f#	.	.	.	.
.	.	16d#	.	16f#	.	.	.	.
8r	.	16d#	.	16f#	.	8r	.	.
.	.	16d#JJ	.	16f#JJ	.	.	.	.
=34	=34	=34	=34	=34	=34	=34	=34	=34
4r	.	16d#LL	p	16f#LL	p	4r	.	.
.	.	16B#X	.	16d#	.	.	.	.
.	.	16d#	.	16f#	.	.	.	.
.	.	16d#	.	16f#	.	.	.	.
8r	.	16d#	.	16f#	.	8r	.	.
.	.	16d#JJ	.	16f#JJ	.	.	.	.
4FF# 4F#	p	16d#LL	.	16f#LL	.	4d#	p	.
.	.	16B#	.	16d#	.	.	.	.
.	.	16d#	.	16f#	.	.	.	.
.	.	16d#	.	16f#	.	.	.	.
8r	.	16d#	.	16f#	.	8r	.	.
.	.	16d#JJ	.	16f#JJ	.	.	.	.
=35	=35	=35	=35	=35	=35	=35	=35	=35
.	.	.	.	.	.	16qqaa/	.	.
4FF#	.	16d#LL	.	16f#LL	.	4aaa	.	.
.	.	16B#X	.	16d#	.	.	.	.
.	.	16d#	.	16f#	.	.	.	.
.	.	16d#	.	16f#	.	.	.	.
8r	.	16d#	.	16f#	.	8r	.	.
.	.	16d#JJ	.	16f#JJ	.	.	.	.
.	.	.	.	.	.	16qqd#/	.	.
4F#	.	16d#LL	.	16f#LL	.	4dd#	.	.
.	.	16B#	.	16d#	.	.	.	.
.	.	16d#	.	16f#	.	.	.	.
.	.	16d#	.	16f#	.	.	.	.
8r	.	16d#	.	16f#	.	8r	.	.
.	.	16d#JJ	.	16f#JJ	.	.	.	.
=36	=36	=36	=36	=36	=36	=36	=36	=36
!	!	!	!LO:DY:a	!	!	!	!	!
4r	.	16dLL	f f	16e#LL 16g#	.	4r	.	#viio7
.	.	16B	.	16d 16g#	.	.	.	.
.	.	16d	.	16e# 16g#	.	.	.	.
.	.	16d	.	16e# 16g#	.	.	.	.
8r	.	16d	.	16e# 16g#	.	8r	.	.
!	!	!	!	!	!LO:DY:a	!	!	!
.	.	16dJJ	.	16e#JJ 16g#	f	.	.	.
4E#	f	16dLL	.	16e#LL 16g#	.	4b 4gg# 4ddd	.	.
.	.	16B	.	16d 16g#	.	.	.	.
.	.	16d	.	16e# 16g#	.	.	.	.
.	.	16d	.	16e# 16g#	.	.	.	.
8r	.	16d	.	16e# 16g#	.	8r	.	.
.	.	16dJJ	.	16e#JJ 16g#	.	.	.	.
=37	=37	=37	=37	=37	=37	=37	=37	=37
4r	.	16dLL	.	16e#LL 16g#	.	4r	.	.
.	.	16B	.	16d 16g#	.	.	.	.
.	.	16d	.	16e# 16g#	.	.	.	.
.	.	16d	.	16e# 16g#	.	.	.	.
8r	.	16d	.	16e# 16g#	.	8r	.	.
.	.	16dJJ	.	16e#JJ 16g#	.	.	.	.
.	.	.	.	.	.	16qqgg/	.	.
4E#	.	16dLL	.	16e#LL 16g#	.	4bbb	.	.
.	.	16B	.	16d 16g#	.	.	.	.
.	.	16d	.	16e# 16g#	.	.	.	.
.	.	16d	.	16e# 16g#	.	.	.	.
8r	.	16d	.	16e# 16g#	.	8r	.	.
.	.	16dJJ	.	16e#JJ 16g#	.	.	.	.
=38	=38	=38	=38	=38	=38	=38	=38	=38
4r	.	16dLL	p	16e#LL 16g#	p	4r	.	.
.	.	16B	.	16d 16g#	.	.	.	.
.	.	16d	.	16e# 16g#	.	.	.	.
.	.	16d	.	16e# 16g#	.	.	.	.
8r	.	16d	.	16e# 16g#	.	8r	.	.
.	.	16dJJ	.	16e#JJ 16g#	.	.	.	.
!	!	!	!	!	!	!	!LO:DY:a	!
4e#	p	16dLL	.	16e#LL 16g#	.	4dd	p	.
.	.	16B	.	16d 16g#	.	.	.	.
.	.	16d	.	16e# 16g#	.	.	.	.
.	.	16d	.	16e# 16g#	.	.	.	.
8r	.	16d	.	16e# 16g#	.	8r	.	.
.	.	16dJJ	.	16e#JJ 16g#	.	.	.	.
=39	=39	=39	=39	=39	=39	=39	=39	=39
.	.	.	.	.	.	16qqg/	.	.
4E#	.	16dLL	.	16e#LL 16g#	.	4bb	.	.
.	.	16B	.	16d 16g#	.	.	.	.
.	.	16d	.	16e# 16g#	.	.	.	.
.	.	16d	.	16e# 16g#	.	.	.	.
8r	.	16d	.	16e# 16g#	.	8r	.	.
.	.	16dJJ	.	16e#JJ 16g#	.	.	.	.
.	.	.	.	.	.	16qqe/	.	.
8E#L	.	16dLL	.	16e#LL 16g#	.	4ee#	.	.
.	.	16B	.	16d 16g#	.	.	.	.
16g#L	.	16b	.	16dd	.	.	.	.
16g#	.	16b	.	16dd	.	.	.	.
16g#	.	16b	.	16dd	.	8r	.	.
16g#JJ	.	16bJJ	.	16ddJJ	.	.	.	.
=40	=40	=40	=40	=40	=40	=40	=40	=40
8g#L	<	8bL	<	(16cc#LL	<	(4.ccc#	<	i
.	.	.	.	16ee#	.	.	.	.
(8g#	.	(8b	.	16gg#	.	.	.	.
.	.	.	.	16ee#	.	.	.	.
8f#J	.	8aJ	.	16ff#	.	.	.	.
.	.	.	.	16aaJJ)	.	.	.	.
8e#L)	[ >	8g#L)	[ >	(8cc#	[ >	(16ccc#LL)	.	V6
.	.	.	.	.	.	16eee#	.	.
(8C#	.	(8B	.	4ccc#)	]]	16ggg#	.	V
.	.	.	.	.	.	16eee#	[ >	.
8F#J	]]	8AJ	]]	.	.	16fff#	.	i
.	.	.	.	.	.	16aaaJJ)	]]	.
=41	=41	=41	=41	=41	=41	=41	=41	=41
8E#L)	<	8G#L)	<	(16cc#LL	<	(4.ccc#	<	i
.	.	.	.	16ee#	.	.	.	.
(8g#	.	(8b	.	16gg#	.	.	.	.
.	.	.	.	16ee#	.	.	.	.
8f#J	.	8aJ	.	16ff#	.	.	.	.
.	.	.	.	16aaJJ)	.	.	.	.
8e#L)	[ >	8g#L)	[ >	(8cc#	[ >	(16ccc#LL)	[ >	V6
.	.	.	.	.	.	16eee#	.	.
8C#	.	8B	.	4ccc#)	]]	16ggg#	.	V
.	.	.	.	.	.	16eee#	.	.
16F#L 16e#	.	16AL	.	.	.	16fff#	.	i
16f#JJ	]]	16aJJ	]]	.	.	16aaaJJ)	]]	.
=42	=42	=42	=42	=42	=42	=42	=42	=42
16BLL	p	16f#LL 16g#	p	16dddLL	p	(16fff#LL	p	ii%65
16B	.	16f# 16g#	.	16dd	.	16ccc#	.	.
16B	.	16f# 16g#	.	16dd	.	16ddd	.	.
16B	.	16f# 16g#	.	16dd	.	16ccc#	.	.
16B	.	16f# 16g#	.	16dd	.	16ddd	.	.
16BJJ	.	16f#JJ 16g#	.	16ddJJ	.	16aa#JJ	.	.
16BLL	.	16f#LL 16g#	.	16ddLL	.	16bbLL	.	.
16B	.	16f# 16g#	.	16dd	.	16gg	.	.
16B	.	16f# 16g#	.	16dd	.	16gg#	.	.
16B	.	16f# 16g#	.	16dd	.	16bb	.	.
16B	.	16f# 16g#	.	16dd	.	16ccc#	.	.
16BJJ	.	16f#JJ 16g#	.	16ddJJ	.	16dddJJ)	.	.
=43	=43	=43	=43	=43	=43	=43	=43	=43
4.c#	.	4.f# 4.a	.	4.cc#	.	(16ccc#LL	.	V[V(64)
.	.	.	.	.	.	16ddd	.	.
.	.	.	.	.	.	16ddd#	.	.
.	.	.	.	.	.	16eee	.	.
.	.	.	.	.	.	16eee#	.	.
.	.	.	.	.	.	16fff#JJ	.	.
4r	.	4r	.	4r	.	16gggLL	.	.
.	.	.	.	.	.	16ggg#	.	.
.	.	.	.	.	.	16aaa	.	.
.	.	.	.	.	.	16aaa#	.	.
8r	.	8r	.	8r	.	16bbb	.	.
.	.	.	.	.	.	16bbb#XJJ)	.	.
=44	=44	=44	=44	=44	=44	=44	=44	=44
2.r	.	4A	sf	4cc#	sf	16cccc#LL	sf	.
.	.	.	.	.	.	16ccc#	.	.
.	.	.	.	.	.	16cccc#	.	.
.	.	.	.	.	.	16cccc#	.	.
.	.	8A	.	8cc#	.	16cccc#	.	.
.	.	.	.	.	.	16cccc#JJ	.	.
.	.	4A	sf	(8cc#L	sf	16cccc#LL	sf	.
.	.	.	.	.	.	16ccc#	.	.
.	.	.	.	8ff#	.	16cccc#	.	.
.	.	.	.	.	.	16cccc#	.	.
.	.	8F#	.	8aaJ)	.	16cccc#	.	.
.	.	.	.	.	.	16cccc#JJ	.	.
=45	=45	=45	=45	=45	=45	=45	=45	=45
8r	.	4B	sf	(4gg#	sf	16cccc#LL	sf	V7]
.	.	.	.	.	.	16ccc#	.	.
!LO:TX:b:i:t=rinf.	!	!	!	!	!	!	!	!
(8c#L	.	.	.	.	.	16cccc#	.	.
.	.	.	.	.	.	16cccc#	.	.
8e#J	.	8G#	.	8ee#	.	16cccc#	.	.
.	.	.	.	.	.	16cccc#JJ	.	.
8g#L	.	4e#	sf	4.cc#)	sf	(16cccc#LL	sf	.
.	.	.	.	.	.	16ccc#	.	.
8cc#	.	.	.	.	.	16cccc#	.	.
.	.	.	.	.	.	16eee#	.	.
8bJ)	.	(8e#	.	.	.	16cccc#	.	.
.	.	.	.	.	.	16ggg#JJ)	.	.
=46	=46	=46	=46	=46	=46	=46	=46	=46
(8aL	.	8f#L)	sf	4cc#	sf	16cccc#LL	sf	i
.	.	.	.	.	.	16ccc#	.	.
8g#	.	8A	.	.	.	16cccc#	.	.
.	.	.	.	.	.	16cccc#	.	.
8f#J)	.	8AJ	.	8cc#	.	16cccc#	.	.
.	.	.	.	.	.	16cccc#JJ	.	.
4r	.	4A	sf	(8cc#L	sf	16cccc#LL	sf	.
.	.	.	.	.	.	16ccc#	.	.
.	.	.	.	8ff#	.	16cccc#	.	.
.	.	.	.	.	.	16cccc#	.	.
8r	.	8F#	.	8aaJ)	.	16cccc#	.	.
.	.	.	.	.	.	16cccc#JJ	.	.
=47	=47	=47	=47	=47	=47	=47	=47	=47
8r	.	4B	sf	(4gg#	sf	16cccc#LL	sf	V7
.	.	.	.	.	.	16ccc#	.	.
(8c#L	.	.	.	.	.	16cccc#	.	.
.	.	.	.	.	.	16cccc#	.	.
8e#J	.	8G#	.	8ee#	.	16cccc#	.	.
.	.	.	.	.	.	16cccc#JJ	.	.
8g#L	.	(8e#L	sf	8cc#L	sf	(16cccc#LL	sf	.
.	.	.	.	.	.	16ccc#	.	.
8cc#')	.	8g#)	.	8b)	.	16cccc#	.	.
.	.	.	.	.	.	16eee#)	.	.
8C#J	fp	[8c#J	fp	8g#J 8ee#	fp	16cccc#	sfp	.
.	.	.	.	.	.	16cccc#JJ	.	.
=48	=48	=48	=48	=48	=48	=48	=48	=48
[4.F#	.	4.c#_	.	[4.a [4.ff#	.	(16cccc#LL	.	i
.	.	.	.	.	.	16ccc#	.	.
.	.	.	.	.	.	16cccc#	.	.
.	.	.	.	.	.	16bbb	.	.
.	.	.	.	.	.	16aaa	.	.
.	.	.	.	.	.	16ggg#JJ	.	.
4F#]	.	4c#]	.	4a] 4ff#]	.	16fff#LL	.	.
.	.	.	.	.	.	16eee	.	.
.	.	.	.	.	.	16ddd	.	.
.	.	.	.	.	.	16ccc#	.	.
!	!	!	!LO:DY:a	!	!LO:DY:a	!	!	!
[8FF#	fp	[8F#	fp fp	[8f#	fp	16bb	.	.
.	.	.	.	.	.	16aaJJ)	.	.
=49	=49	=49	=49	=49	=49	=49	=49	=49
!	!	!	!	!	!	!LO:TX:b:i:t=sempre p	!	!
8FF#]	.	8F#]	.	8f#]	.	(16gg#LL	.	.
.	.	.	.	.	.	16ff#	.	.
8r	.	8r	.	8r	.	16ee#	.	.
.	.	.	.	.	.	16ff#	.	.
8r	.	8r	.	8r	.	16aa	.	.
.	.	.	.	.	.	16ff#JJ	.	.
4r	.	4r	.	4r	.	16aa#LL	.	i.V
.	.	.	.	.	.	16ff#	.	.
.	.	.	.	.	.	16bb	.	.
.	.	.	.	.	.	16ff#	.	.
8r	.	[8f#	pp	8r	.	16bb#X	.	.
.	.	.	.	.	.	16ff#JJ)	.	.
=50	=50	=50	=50	=50	=50	=50	=50	=50
4r	.	8f#]	.	4r	.	(16ccc#LL	.	.
.	.	.	.	.	.	16ff#	.	.
.	.	8r	.	.	.	16ddd	.	.
.	.	.	.	.	.	16ff#	.	.
8r	.	8r	.	8r	.	16ddd#	.	.
.	.	.	.	.	.	16ff#JJ	.	.
(16eLL	p	4r	.	4r	.	16eeeLL	.	V7
16c#	.	.	.	.	.	16ff#	.	.
16A#	.	.	.	.	.	16eee#	.	.
16F#	.	.	.	.	.	16ff#	.	.
16E	.	8r	.	[8f#	p	16fff#	.	.
16C#JJ)	.	.	.	.	.	16ff#JJ)	.	.
=51	=51	=51	=51	=51	=51	=51	=51	=51
8BBL	.	4.B 4.d	.	4.f#]	.	(16fff#LL	.	i[i
.	.	.	.	.	.	16dddJJ)	.	.
(8BB	.	.	.	.	.	8r	.	.
8DJ)	.	.	.	.	.	8r	.	.
8r	.	(16dLL	.	(16f#LL	.	(16dddLL	.	.
.	.	16f#J)	.	16bJ)	.	16bbJJ)	.	.
(8BBL	.	8r	.	8r	.	8r	.	.
8DJ)	.	((8BJ 8d	.	(8f#J	.	8r	.	.
=52	=52	=52	=52	=52	=52	=52	=52	=52
8r	.	4.B)) 4.d	.	4.f#)	.	(16fff#LL	.	.
.	.	.	.	.	.	16dddJJ)	.	.
(8BBL	.	.	.	.	.	8r	.	.
8DJ)	.	.	.	.	.	8r	.	.
8r	.	(16dLL	.	(16f#LL	.	(16dddLL	.	.
.	.	16f#JJ)	.	16bJJ)	.	16bbJ)	.	.
(8BBL	.	8r	.	8r	.	8r	.	.
8DJ)	.	8r	.	8r	.	(8bbJ	<	.
=53	=53	=53	=53	=53	=53	=53	=53	=53
8r	.	(16eLL	<	(16gLL	<	8eeeL	.	iv
.	.	16gJJ)	[ >	16bJJ)	[ >	.	.	.
(8BBL	<	8r	]	8r	]	8fff#)	.	.
8EJ)	>	8r	.	8r	.	8ggg'J	.	.
8r	.	(16dLL	.	(16f#LL	.	4fff#	[ >	i
.	.	16f#JJ)	.	16bJJ)	.	.	.	.
(8BBL	.	8r	.	8r	.	.	.	.
8DJ)	]]	8r	.	8r	.	(8bb	<[	.
=54	=54	=54	=54	=54	=54	=54	=54	=54
8r	]	(16eLL	<	(16gLL	<	8eeeL	.	iv
.	.	16gJJ)	[ >	16bJJ)	[ >	.	.	.
(8BBL	<	8r	]	8r	]	8fff#)	.	.
8EJ)	>	8r	.	8r	.	8ggg'J	.	.
8r	.	(16dLL	.	(16f#LL	.	4fff#	[ >	i]
.	.	16f#J)	.	16bJJ)	.	.	.	.
(8BBL	.	8r	.	8r	.	.	.	.
8DJ	]]	(8F#J	.	8r	.	8r	]]	.
=55	=55	=55	=55	=55	=55	=55	=55	=55
8F#L	]	8AL	.	4r	.	4r	.	V7/VI
8G)	.	8B)	.	.	.	.	.	.
8A'J	.	8cX'J	.	8r	.	8r	.	.
4.G	.	4.B	.	4r	.	4r	.	VI
.	.	.	.	(8g	.	(8b	.	.
=56	=56	=56	=56	=56	=56	=56	=56	=56
4r	.	4r	.	8aL	.	8ccXL	.	V7/VI
.	.	.	.	8b)	.	8dd)	.	.
8r	.	8r	.	8ccX'J	.	8ee'J	.	.
4r	.	4r	.	4.b	.	4.dd	.	VI
(8d	.	(8f#	.	.	.	.	.	.
=57	=57	=57	=57	=57	=57	=57	=57	=57
8eL	.	8gL	.	4r	.	4r	.	V7/III
8f#)	.	8a)	.	.	.	.	.	.
8g'J	.	8b'J	.	8r	.	8r	.	.
4.f#	.	4.a	.	4r	.	4r	.	III
.	.	.	.	(8ff#	<	(8aa	<	.
=58	=58	=58	=58	=58	=58	=58	=58	=58
4r	.	4r	.	8ggL	.	8bbL	.	VI
.	.	.	.	8aa)	.	8cccX)	.	.
8r	.	8f#	.	8bb'J	.	8ddd'J	.	.
4r	.	8aL	.	4aa	[ >	4ccc	[ >	VII
.	.	8b	.	.	.	.	.	.
!	!	!	!LO:DY:a	!	!	!	!	!
(8D#	sf	[8d#J [8ccX	sf sf	[8f# [8a	]	(8ccc	] sf	#viio7/iv
=59	=59	=59	=59	=59	=59	=59	=59	=59
8F#L	.	4d#] 4cc]	.	4.f#] 4.a]	.	8aaL	.	.
8G)	.	.	.	.	.	8gg)	.	.
8A'J	.	(8f#	.	.	.	8ff#'J	.	.
4r	.	8aL	.	4r	.	4r	.	.
.	.	8b)	.	.	.	.	.	.
(8D#	sf	[8d#J [8ccX	sf	[8f# [8a	sf	(8cccX	sf	.
=60	=60	=60	=60	=60	=60	=60	=60	=60
8F#L	.	4d#] 4cc]	.	4.f#] 4.a]	.	8aaL	.	.
8G)	.	.	.	.	.	8gg)	.	.
8A'J	.	(8f#	.	.	.	8ff#'J	.	.
4r	.	8g#L	.	4r	.	4r	.	.
.	.	8a)	.	.	.	.	.	.
(8D	.	[8dXJ [8b	.	[8e# [8g#	.	(8bb	.	#viio2/V
=61	=61	=61	=61	=61	=61	=61	=61	=61
8E#L	.	4d] 4b]	.	4.e#] 4.g#]	.	8gg#L	.	.
8F#)	.	.	.	.	.	8ff#)	.	.
8G#'J	.	(8e#	.	.	.	8ee#'J	.	.
4r	.	8g#L	.	4r	.	4r	.	.
.	.	8a)	.	.	.	.	.	.
!	!	!	!LO:DY:a	!	!	!	!	!
(8D	sf	[8d#J [8b	sf sf	[8e# [8g#	.	(8bb	sf	.
=62	=62	=62	=62	=62	=62	=62	=62	=62
8E#L	.	4d#] 4b]	.	4e#] 4g#]	.	8gg#L	.	.
8F#)	.	.	.	.	.	8ff#)	.	.
8G#'J	.	(8g#	.	(8e#	.	8ee#'J	.	.
4r	.	8bL	.	8g#L	.	4r	.	.
.	.	8ccX)	.	8a)	.	.	.	.
(8BB	.	[8e#J [8dd	.	[8g#J [8b	.	(8ddd	.	#vii43/V
=63	=63	=63	=63	=63	=63	=63	=63	=63
8DL	.	4e#] 4dd]	.	4g#] 4b]	.	8bbL	.	.
8E)	.	.	.	.	.	8aa)	.	.
8E#'J	.	(8g#	.	(8e#	.	8gg#'J	.	.
4r	.	8bL	.	8g#L	.	4r	.	.
.	.	8ccX)	.	8a)	.	.	.	.
(8BB	sf	[8e#J [8dd	sf	[8g#J [8b	sf	(8ddd	sf	.
=64	=64	=64	=64	=64	=64	=64	=64	=64
8DL	.	4e#] 4dd]	.	4g#] 4b]	.	8bbL	.	.
8E)	.	.	.	.	.	8aa)	.	.
8E#'J	.	(8e#	.	(8b	.	8gg#'J	.	.
4r	.	8bL	.	8ddL	.	4r	.	.
.	.	8ccX)	.	8ee)	.	.	.	.
!LO:TX:b:i:t=dim.	!	!LO:TX:b:i:t=dim.	!	!LO:TX:b:i:t=dim.	!	!LO:TX:a:i:t=dim.	!	!
[8BB	.	[8gJ	.	((8ddJ 8ffX	.	(8ddd	.	VI.V65/IV
=65	=65	=65	=65	=65	=65	=65	=65	=65
4.BB]	.	4.g]	.	4.dd)) 4.ffX	.	8bbL	.	.
.	.	.	.	.	.	8aa	.	.
.	.	.	.	.	.	16ggL	.	.
.	.	.	.	.	.	16gggJJ)	.	.
16CXLL	.	16gLL	.	16eeLL	.	(8gggL	.	IV
16cX	.	16g	.	16ee	.	.	.	.
16c	.	16g	.	16ee	.	8ddd#	.	.
16c	.	16g	.	16ee	.	.	.	.
16c	.	16g	.	16ee	.	8eeeJ)	.	.
16cJJ	.	16gJJ	.	16eeJJ	.	.	.	.
=66	=66	=66	=66	=66	=66	=66	=66	=66
4.cX	p	4.a	p	4.ee	p	(16bbLL	p	ii6
.	.	.	.	.	.	16cccX	.	.
.	.	.	.	.	.	16gg#	.	.
.	.	.	.	.	.	16aa	.	.
.	.	.	.	.	.	16ccc	.	.
.	.	.	.	.	.	16eeeJJ)	.	.
4.ccX	.	4.ee	.	4.aa	.	(16bbLL	.	.
.	.	.	.	.	.	16ccc	.	.
.	.	.	.	.	.	16gg#	.	.
.	.	.	.	.	.	16aa	.	.
.	.	.	.	.	.	16ccc	.	.
.	.	.	.	.	.	16eeeJJ)	.	.
=67	=67	=67	=67	=67	=67	=67	=67	=67
8ddL	pp	(16ggLL	pp	(16bbLL	pp	(16dddLL	pp	V(64)
.	.	16ddJJ)	.	16ggJJ)	.	16bbJJ)	.	.
(8d	.	8r	.	8r	.	8r	.	.
8gJ)	.	8r	.	8r	.	8r	.	.
8r	.	(16ddLL	.	(16ggLL	.	(16bbLL	.	.
.	.	16bJJ)	.	16ddJJ)	.	16ggJJ)	.	.
(8dL	.	8r	.	8r	.	8r	.	.
8gJ)	.	8r	.	8r	.	8r	.	.
=68	=68	=68	=68	=68	=68	=68	=68	=68
8r	.	(16ddLL	.	(16ff#LL	.	(16cccXLL	.	V7
.	.	16ccXJJ)	.	16ddJJ)	.	16aaJJ)	.	.
(8dL	.	8r	.	8r	.	8r	.	.
8aJ)	.	8r	.	8r	.	8r	.	.
8r	.	(16ddLL	.	(16ff#LL	.	(16fff#LL	.	.
.	.	16ccJJ)	.	16ddJJ)	.	16aaJJ)	.	.
(8dL	.	8r	.	8r	.	8r	.	.
8aJ)	.	8r	.	8r	.	8r	.	.
=69	=69	=69	=69	=69	=69	=69	=69	=69
8r	.	(16bLL	.	(16ddLL	.	(16gggLL	.	I
.	.	16gJJ)	.	16bJJ)	.	16bbJJ)	.	.
(8gL	.	8r	.	8r	.	8r	.	.
8bJ)	.	8r	.	8r	.	8r	.	.
8r	.	(16ddLL	.	(16eeLL	.	(16ggg#LL	.	V7/ii
.	.	16bJJ)	.	16ddJJ)	.	16bbJJ)	.	.
(8eL	.	8r	.	8r	.	8r	.	.
8bJ)	.	8r	.	8r	.	8r	.	.
=70	=70	=70	=70	=70	=70	=70	=70	=70
8r	.	(16ccXLL	.	(16eeLL	.	(16aaaLL	.	ii
.	.	16aJJ)	.	16ccXJJ)	.	16cccXJJ)	.	.
(8aL	.	8r	.	8r	.	8r	.	.
8ccXJ)	.	8r	.	8r	.	8r	.	.
8r	.	(16ff#LL	.	(16bbLL	.	(16bbbLL	.	V/iv
.	.	16dd#JJ)	.	16ff#JJ)	.	16bbJJ)	.	.
(8d#L	.	8r	.	8r	.	8r	.	.
8dd#J)	.	8r	.	8r	.	8r	.	.
=71	=71	=71	=71	=71	=71	=71	=71	=71
8eL	.	(16ggLL	.	(16bbLL	.	(16bbbLL	.	.vi.iv[iv
.	.	16eeJ)	.	16ggJ)	.	16bbJ)	.	.
8ee	.	(8gg#	.	(8bb	.	8r	.	V6/vi
8eeJ	.	8bbJ	<	8dddJ	<	(8eeeJ	<	V7/vi
[4.ee	.	8aaL	.	8cccXL	.	8aaaL	.	vi
.	.	8dd#)	.	8bb)	.	8bbb)	.	V6
.	.	8dd#'J	[ >	8aa'J	[ >	8ccccX'J	[ >	#viio7
=72	=72	=72	=72	=72	=72	=72	=72	=72
8eeL]	.	(8eeL	.	(8ggL	.	4bbb	.	i
8ee	.	8gg#	]	8bb	]	.	.	.
8eeJ	.	8bbJ	<	8dddJ	<	(8eeeT	] <	V7/vi
[4.ee	.	8aaL	.	8cccXL	.	8aaaL	.	iv
.	.	8dd#)	.	8bb)	.	8bbb)	.	V6
.	.	8dd#'J	[[	8aa'J	[[	8ccccX'J	[[	#viio7
=73	=73	=73	=73	=73	=73	=73	=73	=73
4ee]	.	(8eeL	>	(8ggL	>	4bbb	>	i
.	.	8gg)	]	8aa#	]	.	.	.
8ee	.	8ggJ	.	8bbJ)	.	8eee	]	.
!LO:TX:a:i:t=cresc.	!	!LO:TX:a:i:t=cresc.	!	!LO:TX:a:i:t=cresc.	!	!LO:TX:a:i:t=cresc.	!	!
(8eeL	.	(8ggL	.	8bbL	.	(8eeeML	.	i[i
8ff#	.	8aa	.	8bb	.	8ddd	.	v(7)
8eeJ)	.	8ggJ)	.	8bbJ	.	8eeeJ	.	i
=74	=74	=74	=74	=74	=74	=74	=74	=74
(8eeL	.	(8bL	.	(8ggL	.	8gggL	.	.
8dd#	.	8ccX	.	8aa	.	8fff#	.	#viio7
8eeJ)	.	8bJ	.	8ggJ)	.	8gggJ)	.	i
.	.	.	.	.	.	16qqfff#/	>	.
4.dd#	>]	8BL	>	4aa	>	(4bbb	.	V65
.	.	8cX	.	.	.	.	.	.
.	.	8BJ)	]]	8b 8ff#	]]	16aaaLL	.	.
.	.	.	.	.	.	16fff#JJ)	]]	.
=75	=75	=75	=75	=75	=75	=75	=75	=75
8eeL	p	(8eL	p	8bL 8gg	p	(8aaaL	p	i.iv(4)
(8ee	.	8c#	.	(8gg	.	8ggg	.	iio
8cc#J)	.	8A#J)	.	8ff#J)	.	8fff#J)	.	V6
!LO:TX:a:i:t=cresc.	!	!LO:TX:b:i:t=cresc.	!	!LO:TX:b:i:t=cresc.	!	!LO:TX:a:i:t=cresc.	!	!
8cc#L	.	(8A#L	.	(8ff#L	.	(8fff#L	.	.
(8cc#	.	8F#	.	8ee	.	8eee	.	V[V
8bJ)	.	8f#J)	.	8ddJ)	.	8dddJ)	.	i
=76	=76	=76	=76	=76	=76	=76	=76	=76
(8bML	.	8F#L	.	(8ddL	.	(8dddL	.	.
8a#	.	(8F#	.	8e	.	8ccc#	.	V6
8bJ	.	8f#J)	.	8dJ	.	8bbJ)	.	i
8ddL	.	8r	.	8f#L)	.	(8bbL	.	i6
8cc#	.	(8F#L	.	(8gg	.	8aa#	.	V64(9)
8ddJ)	.	8f#J)	.	8ff#J)	.	8bbJ)	.	i6
=77	=77	=77	=77	=77	=77	=77	=77	=77
(4ff#	>	8r	.	(8ddL	>	(8bbL	>	i6
.	.	(8F#L	>	8cc#	.	8aa#	.	V
16eeLL	.	8f#J)	.	8ccc#J	]	8aaa#J	]	V2
16cc#JJ	.	.	.	.	.	.	.	.
8eeL	p	8r	] p	4ddd)	p	4.bbb)	p	i6(4)
8ddJ)	.	(8F#L	.	.	.	.	.	.
8r	]]	8BJ)	.	8b	.	.	.	.
=78	=78	=78	=78	=78	=78	=78	=78	=78
8FF#L	.	(8BL	.	(8bL	.	4r	.	i
(8FF#	.	8A#	.	8a#	.	.	.	.
8F#J)	.	8BJ	.	8bJ	.	8r	.	.
8r	.	8dL	.	8ddL	.	4r	.	.
(8FF#L	.	8c#	.	8cc#	.	.	.	.
8F#J)	.	8dJ)	.	8ddJ)	.	8aa#	.	.
=79	=79	=79	=79	=79	=79	=79	=79	=79
!LO:TX:b:i:t=cresc.	!	!LO:TX:b:i:t=cresc.	!	!LO:TX:b:i:t=cresc.	!	!LO:TX:b:i:t=cresc.	!	!
8r	.	(4f#	.	(4ff#	.	(8aa#L	.	V
(8FF#L	.	.	.	.	.	8gg#	.	.
8F#J)	.	16eLL	.	16eeLL	.	8aa#J	.	V7
.	.	16c#JJ)	.	16cc#JJ)	.	.	.	.
8r	.	(8eL	.	(8eeL	.	8ccc#L	.	.
(8FF#L	.	8dJ)	.	8dd)	.	8bb	.	i6
8F#J)	.	8r	.	(16f#L	.	8ccc#J	.	V
.	.	.	.	16a#JJ)	.	.	.	.
=80	=80	=80	=80	=80	=80	=80	=80	=80
4r	.	4r	.	(16f#LL	.	8dddL	.	i64
.	.	.	.	16b	.	.	.	.
.	.	.	.	16f#	.	8ccc#	.	.
.	.	.	.	16b	.	.	.	.
8r	.	8r	.	16f#	.	8ddd#J	.	V/iv]
.	.	.	.	16bJJ)	.	.	.	.
4r	.	4r	.	(16gLL	.	8fff#L	.	iv6(4)
.	.	.	.	16b	.	.	.	.
.	.	.	.	16g	.	8eee)	.	iv6
.	.	.	.	16bJ)	.	.	.	.
(8GG#	sf	(16BLL	sf	(8ee#J	sf	(8eee#J	sf	V43
.	.	16c#JJ)	.	.	.	.	.	.
=81	=81	=81	=81	=81	=81	=81	=81	=81
8AA#L)	.	(16F#LL	.	8ggL	.	8gggL	.	V[V6(9)
.	.	16f#	.	.	.	.	.	.
(8AA#	.	16F#	.	8ff#	.	8fff#	.	V6
.	.	16f#	.	.	.	.	.	.
8BBJ	sf	16F#	sf	8gg#J	sf	8ggg#J	sf	iio/V
.	.	16f#JJ)	.	.	.	.	.	.
8C#L)	.	(16F#LL	.	8aaL	.	8aaaL	.	V(6)/V
.	.	16f#	.	.	.	.	.	.
8C#	.	16F#	.	8gg#)	.	8ggg#)	.	V/V
.	.	16f#	.	.	.	.	.	.
(8C#J	sf	16F#	sf	(8aa#J	sf	(8aaa#J	sf	V
.	.	16f#JJ)	.	.	.	.	.	.
=82	=82	=82	=82	=82	=82	=82	=82	=82
8DL)	.	(16F#LL	.	8bbL	.	8bbbL	.	i6
.	.	16f#	.	.	.	.	.	.
8d	.	16F#	.	8aa#	.	8aaa#	.	i6(+#7)
.	.	16f#	.	.	.	.	.	.
8dJ	sf	16F#	sf	8bbJ)	sf	8bbbJ)	sf	i6]
.	.	16f#JJ)	.	.	.	.	.	.
.	.	.	.	.	.	16qqddd/	ff	#viio7/V
4E#	ff	16BLL	ff	16dddLL	ff	4.dddd	.	.
.	.	16B	.	16d 16g#	.	.	.	.
.	.	16d	.	16e# 16g#	.	.	.	.
.	.	16d	.	16e# 16g#	.	.	.	.
8r	.	16d	.	16e# 16g#	.	.	.	.
.	.	16dJJ	.	16e#JJ 16g#	.	.	.	.
=83	=83	=83	=83	=83	=83	=83	=83	=83
4r	.	16dLL	.	16e#LL 16g#	.	4r	.	.
.	.	16B	.	16d 16g#	.	.	.	.
.	.	16d	.	16e# 16g#	.	.	.	.
.	.	16d	.	16e# 16g#	.	.	.	.
8r	.	16d	.	16e# 16g#	.	8r	.	.
.	.	16dJJ	.	16e#JJ 16g#	.	.	.	.
4E#	.	16dLL	.	16e#LL 16g#	.	4d 4b 4gg#	.	.
.	.	16B	.	16d 16g#	.	.	.	.
.	.	16d	.	16e# 16g#	.	.	.	.
.	.	16d	.	16e# 16g#	.	.	.	.
8r	.	16d	.	16e# 16g#	.	8r	.	.
.	.	16dJJ	.	16e#JJ 16g#	.	.	.	.
=84	=84	=84	=84	=84	=84	=84	=84	=84
4r	.	16dLL	p	16e#LL 16g#	p	4r	.	.
.	.	16B	.	16d 16g#	.	.	.	.
.	.	16d	.	16e# 16g#	.	.	.	.
.	.	16d	.	16e# 16g#	.	.	.	.
8r	.	16d	.	16e# 16g#	.	8r	.	.
.	.	16dJJ	.	16e#JJ 16g#	.	.	.	.
!	!LO:DY:a	!	!	!	!	!	!LO:DY:a	!
4e#	p	16dLL	.	16e#LL 16g#	.	4bb	p	.
.	.	16B	.	16d 16g#	.	.	.	.
.	.	16d	.	16e# 16g#	.	.	.	.
.	.	16d	.	16e# 16g#	.	.	.	.
8r	.	16d	.	16e# 16g#	.	8r	.	.
.	.	16dJJ	.	16e#JJ 16g#	.	.	.	.
=85	=85	=85	=85	=85	=85	=85	=85	=85
.	.	.	.	.	.	16qqgg/	.	.
4E#	.	16dLL	.	16e#LL 16g#	.	4ggg#	.	.
.	.	16B	.	16d 16g#	.	.	.	.
.	.	16d	.	16e# 16g#	.	.	.	.
.	.	16d	.	16e# 16g#	.	.	.	.
8r	.	16d	.	16e# 16g#	.	8r	.	.
.	.	16dJJ	.	16e#JJ 16g#	.	.	.	.
.	.	.	.	.	.	16qqg/	.	.
4E#	.	16dLL	.	16e#LL 16g#	.	4gg#	.	.
.	.	16B	.	16d 16g#	.	.	.	.
.	.	16b	.	16dd	.	.	.	.
.	.	16b	.	16dd	.	.	.	.
8r	.	16b	.	16dd	.	8r	.	.
.	.	16bJJ	.	16ddJJ	.	.	.	.
=86	=86	=86	=86	=86	=86	=86	=86	=86
!	!LO:DY:a	!	!	!	!	!	!	!
4r	ff	16a#LL	.	16cc#LL	ff	4r	.	#viio65
.	.	16e	.	16c# 16a#	.	.	.	.
.	.	16g	.	16e 16a#	.	.	.	.
.	.	16g	.	16e 16a#	.	.	.	.
8r	.	16g	.	16e 16a#	.	8r	.	.
.	.	16gJJ	.	16eJJ 16a#	.	.	.	.
4C#	ff	16gLL	.	16eLL 16a#	.	4cc# 4aa# 4ggg	ff	.
.	.	16e	.	16c# 16a#	.	.	.	.
.	.	16g	.	16e 16a#	.	.	.	.
.	.	16g	.	16e 16a#	.	.	.	.
8r	.	16g	.	16e 16a#	.	8r	.	.
.	.	16gJJ	.	16eJJ 16a#	.	.	.	.
=87	=87	=87	=87	=87	=87	=87	=87	=87
4r	.	16gLL	.	16eLL 16a#	.	4r	.	.
.	.	16e	.	16c# 16a#	.	.	.	.
.	.	16g	.	16e 16a#	.	.	.	.
.	.	16g	.	16e 16a#	.	.	.	.
8r	.	16g	.	16e 16a#	.	8r	.	.
.	.	16gJJ	.	16eJJ 16a#	.	.	.	.
4c#	.	16gLL	.	16eLL 16a#	.	4c# 4a#	.	.
.	.	16e	.	16c# 16a#	.	.	.	.
.	.	16g	.	16e 16a#	.	.	.	.
.	.	16g	.	16e 16a#	.	.	.	.
8r	.	16g	.	16e 16a#	.	8r	.	.
.	.	16gJJ	.	16eJJ 16a#	.	.	.	.
=88	=88	=88	=88	=88	=88	=88	=88	=88
4r	.	16gLL	p	16eLL 16a#	p	4r	.	.
.	.	16e	.	16c# 16a#	.	.	.	.
.	.	16g	.	16e 16a#	.	.	.	.
.	.	16g	.	16e 16a#	.	.	.	.
8r	.	16g	.	16e 16a#	.	8r	.	.
.	.	16gJJ	.	16eJJ 16a#	.	.	.	.
4c#	p	16gLL	.	16eLL 16a#	.	4aa#	p	.
.	.	16e	.	16c# 16a#	.	.	.	.
.	.	16g	.	16e 16a#	.	.	.	.
.	.	16g	.	16e 16a#	.	.	.	.
8r	.	16g	.	16e 16a#	.	8r	.	.
.	.	16gJJ	.	16eJJ 16a#	.	.	.	.
=89	=89	=89	=89	=89	=89	=89	=89	=89
.	.	.	.	.	.	16qqgg/	.	.
4C#	.	16gLL	.	16eLL 16a#	.	4ggg	.	.
.	.	16e	.	16c# 16a#	.	.	.	.
.	.	16g	.	16e 16a#	.	.	.	.
.	.	16g	.	16e 16a#	.	.	.	.
.	.	.	.	.	.	16qqg#/	.	.
8r	.	16g	.	16e 16a#	.	4gg	.	.
.	.	16gJJ	.	16eJJ 16a#	.	.	.	.
8C#L	.	16gLL	.	16eLL 16a#	.	.	.	.
.	.	16e	.	16c# 16a#	.	.	.	.
16c#L	.	16e	.	16g	.	8r	.	.
16c#	.	16e	.	16g	.	.	.	.
16c#	.	16e	.	16g	.	8r	.	.
16c#JJ	.	16eJJ	.	16gJJ	.	.	.	.
=90	=90	=90	=90	=90	=90	=90	=90	=90
8c#L	<	8eL	<	(16f#LL	<	(4.ff#	<	i
.	.	.	.	16a#	.	.	.	.
(8f#	.	(8ee	.	16cc#	.	.	.	.
.	.	.	.	16a#	.	.	.	.
8bJ	.	8ddJ	.	16b	.	.	.	.
.	.	.	.	16ddJJ)	.	.	.	.
8a#L)	[ >	8cc#L)	[ >	(4f#	[ >	(16ff#LL)	.	V6
.	.	.	.	.	.	16aa#	.	.
(8F#	.	(8e	.	.	.	16ccc#	.	V
.	.	.	.	.	.	16aa#	[ >	.
8BJ	]]	8dJ	]]	8ff#)	]]	16bb	.	i
.	.	.	.	.	.	16dddJJ)	]]	.
=91	=91	=91	=91	=91	=91	=91	=91	=91
8A#L)	<	8c#L)	<	(16f#LL	<	(4.ff#	<	i
.	.	.	.	16a#	.	.	.	.
(8f#	.	(8ee	.	16cc#	.	.	.	.
.	.	.	.	16a#	.	.	.	.
8bJ	.	8ddJ	.	16b	.	.	.	.
.	.	.	.	16ddJJ)	.	.	.	.
8a#L)	[ >	8cc#L)	[ >	(8f#	[ >	(16ff#LL)	.	V6
.	.	.	.	.	.	16aa#	.	.
8F#	.	8e	.	4ff#)	]]	16ccc#	.	V
.	.	.	.	.	.	16aa#	[ >	.
16BL	.	16dL	.	.	.	16bb	.	i
16BJJ	]]	16bJJ	]]	.	.	16dddJJ)	]]	.
=92	=92	=92	=92	=92	=92	=92	=92	=92
16eLL	p	16gLL 16b	p	16ggLL	p	(16bbLL	p	ii65
16e	.	16g 16b	.	16cc#	.	16ff#	.	.
16e	.	16g 16b	.	16cc#	.	16gg	.	.
16e	.	16g 16b	.	16cc#	.	16ff#	.	.
16e	.	16g 16b	.	16cc#	.	16gg	.	.
16eJJ	.	16gJJ 16b	.	16cc#JJ	.	16dd#JJ	.	.
16eLL	.	16gLL 16b	.	16cc#LL	.	16eeLL	.	.
16e	.	16g 16b	.	16gg	.	16b#X	.	.
16e	.	16g 16b	.	16gg	.	16cc#	.	.
16e	.	16g 16b	.	16gg	.	16ee	.	.
16e	.	16g 16b	.	16gg	.	16ff#	.	.
16eJJ	.	16gJJ 16b	.	16cc#JJ	.	16ggJJ)	.	.
=93	=93	=93	=93	=93	=93	=93	=93	=93
4f#	.	4b	.	4dd	.	(16ff#LL	.	V(64)
.	.	.	.	.	.	16gg	.	.
.	.	.	.	.	.	16gg#	.	.
.	.	.	.	.	.	16aa	.	.
8r	.	8r	.	8r	.	16aa#	.	.
.	.	.	.	.	.	16bbJJ	.	.
4r	.	4r	.	4r	.	16bb#XLL	.	.
.	.	.	.	.	.	16ccc#	.	.
.	.	.	.	.	.	16ddd	.	.
.	.	.	.	.	.	16ddd#	.	.
8r	.	8r	.	8r	.	16eee	.	.
.	.	.	.	.	.	16eee#JJ)	.	.
=94	=94	=94	=94	=94	=94	=94	=94	=94
!	!	!	!	!	!LO:DY:a	!	!	!
4f#	sf	4d	sf	2.r	sf	16fff#LL	sf	i6
.	.	.	.	.	.	16ff#	.	.
.	.	.	.	.	.	16fff#	.	.
.	.	.	.	.	.	16fff#	.	.
8f#	.	8d	.	.	.	16fff#	.	.
.	.	.	.	.	.	16fff#JJ	.	.
(8f#L	sf	4d	sf	.	.	16fff#LL	.	.
.	.	.	.	.	.	16ff#	.	.
8b	.	.	.	.	.	16fff#	.	.
.	.	.	.	.	.	16fff#	.	.
8ddJ)	.	8B	.	.	.	16fff#	.	i
.	.	.	.	.	.	16fff#JJ	.	.
=95	=95	=95	=95	=95	=95	=95	=95	=95
(4cc#	sf	4e	sf	8r	.	16fff#LL	sf	V2
.	.	.	.	.	.	16ff#	.	.
!	!	!	!	!LO:TX:b:i:t=rinf.	!	!	!	!
.	.	.	.	(8ff#L	.	16fff#	.	.
.	.	.	.	.	.	16fff#	.	.
8a#	.	8c#	.	8aa#J	.	16fff#	.	V43
.	.	.	.	.	.	16fff#JJ	.	.
4.f#)	.	4a#	.	8ccc#L	.	(16fff#LL	sf	V7
.	.	.	.	.	.	16ff#	.	.
.	.	.	.	8fff#	.	16fff#	.	.
.	.	.	.	.	.	16aa#	.	.
.	.	8A#	.	8eeeJ)	.	16fff#	.	.
.	.	.	.	.	.	16ccc#JJ)	.	.
=96	=96	=96	=96	=96	=96	=96	=96	=96
4f#	sf	8BL	sf	(8dddL	.	16fff#LL	sf	i
.	.	.	.	.	.	16ff#	.	.
.	.	8d	.	8ccc#	.	16fff#	.	i6
.	.	.	.	.	.	16fff#	.	.
8f#	.	8dJ	.	8bbJ)	.	16fff#	.	.
.	.	.	.	.	.	16fff#JJ	.	.
!	!	!	!	!	!LO:DY:a	!	!	!
(8f#L	sf	4d	sf	4r	sf	16fff#LL	.	.
.	.	.	.	.	.	16ff#	.	.
8b	.	.	.	.	.	16fff#	.	.
.	.	.	.	.	.	16fff#	.	.
8ddJ)	.	8B	.	8r	.	16fff#	.	.
.	.	.	.	.	.	16fff#JJ	.	.
=97	=97	=97	=97	=97	=97	=97	=97	=97
!	!	!	!	!	!LO:DY:a	!	!	!
(4cc#	sf	4e	sf	8r	sf	16fff#LL	.	V2
.	.	.	.	.	.	16ff#	.	.
.	.	.	.	(8ff#L	.	16fff#	.	.
.	.	.	.	.	.	16fff#	.	.
8a#	.	8c#	.	8aa#J	.	16fff#	.	V43
.	.	.	.	.	.	16fff#JJ	.	.
8f#L)	.	8a#L	.	8ccc#L	.	(16fff#LL	.	V7
.	.	.	.	.	.	16ff#	.	.
8FF#	.	8A#	.	8fff#')	.	16fff#	.	.
.	.	.	.	.	.	16aa#	.	.
8FF#J	fp	[8f#J	fp	8c#J 8a#	fp	16fff#	.	.
.	.	.	.	.	.	16ccc#JJ)	.	.
=98	=98	=98	=98	=98	=98	=98	=98	=98
(16BBLL	.	4.f#]	.	4.d 4.b	.	(16fff#LL	p	i[i
16D	.	.	.	.	.	16dddJJ)	.	.
16F#	.	.	.	.	.	8r	.	.
16B	.	.	.	.	.	.	.	.
16d	.	.	.	.	.	8r	.	.
16f#JJ)	.	.	.	.	.	.	.	.
4r	.	(16BLL	.	(16dLL	.	(16dddLL	.	.
.	.	16d	.	16f#	.	16bbJJ)	.	.
.	.	16f#	.	16b	.	8r	.	.
.	.	16b	.	16dd	.	.	.	.
8r	.	16dd	.	16ff#	.	8r	.	.
.	.	16bJJ)	.	16ddJJ)	.	.	.	.
=99	=99	=99	=99	=99	=99	=99	=99	=99
(16BBLL	.	4.f#	.	4.d 4.b	.	(16fff#LL	.	.
16D	.	.	.	.	.	16dddJJ)	.	.
16F#	.	.	.	.	.	8r	.	.
16B	.	.	.	.	.	.	.	.
16d	.	.	.	.	.	8r	.	.
16f#JJ)	.	.	.	.	.	.	.	.
4r	.	(16BLL	.	(16dLL	.	(16dddLL	.	.
.	.	16d	.	16f#	.	16bbJ)	.	.
.	.	16f#	.	16b	.	8r	.	.
.	.	16b	.	16dd	.	.	.	.
8r	.	16dd	.	16ff#)	.	(8bbJ	<	.
.	.	16dd#JJ)	.	16ff#JJ	.	.	.	.
=100	=100	=100	=100	=100	=100	=100	=100	=100
(16BBLL	<	4.cc# 4.ee	< >	4.a# 4.gg	< >	8eeeL	.	#viio7
16E	.	.	.	.	.	.	.	.
16G	.	.	.	.	.	8fff#)	.	.
16B	[ >	.	.	.	.	.	.	.
16e	.	.	.	.	.	8ggg'J	.	.
16gJJ)	.	.	.	.	.	.	.	.
4r	]	(16BLL	.	(16dLL	.	4fff#	[ >	i
.	.	16d	.	16f#	.	.	.	.
.	.	16f#	.	16b	.	.	.	.
.	.	16b	.	16dd	.	.	.	.
8r	.	16dd	.	16ff#)	.	8bb	<[	.
.	.	16dd#JJ)	]]	16ff#JJ	]]	.	.	.
=101	=101	=101	=101	=101	=101	=101	=101	=101
(16BBLL	<	4.cc# 4.ee	[ < >	4.a# 4.gg	] > <	8eeeL	.	#viio7
16E	.	.	.	.	.	.	.	.
16G	.	.	.	.	.	8fff#	.	.
16B	[ >	.	.	.	.	.	.	.
16e	.	.	.	.	.	8ggg'J	[ >	.
16gJJ)	.	.	.	.	.	.	.	.
4r	]	(16BLL	.	(16dLL	.	4fff#	.	i
.	.	16d	.	16f#	.	.	.	.
.	.	16f#	.	16b	.	.	.	.
.	.	16b	.	16dd	.	.	.	.
*clefC4	*	*	*	*	*	*	*	*
8b	.	16dd	.	16ff#	.	8fff#'	]	i]
.	.	16BJJ)	]]	16ddJJ)	[[	.	.	.
=102	=102	=102	=102	=102	=102	=102	=102	=102
!LO:TX:a:i:t=cresc.	!	!LO:TX:b:i:t=cresc.	!	!LO:TX:b:i:t=cresc.	!	!LO:TX:a:i:t=cresc.	!	!
(8bL	.	8F#L	]	(16ddLL	[	(8fff#L	.	V[V(64)
.	.	.	.	16ff#	.	.	.	.
8a#	.	(8F#	.	16cc#	.	8eee	.	V65
.	.	.	.	16ff#	.	.	.	.
8bJ	.	8f#J)	.	16dd	.	8dddJ)	.	i
.	.	.	.	16ff#JJ)	.	.	.	.
8ddL	.	8r	.	(16bLL	.	(8dddL	.	i6
.	.	.	.	16ff#	.	.	.	.
8cc#	.	(8F#L	.	16a#	.	8ccc#	.	V64
.	.	.	.	16ff#	.	.	.	.
8ddJ)	.	8f#J)	.	16b	.	8bbJ)	.	i6
.	.	.	.	16ff#JJ)	.	.	.	.
=103	=103	=103	=103	=103	=103	=103	=103	=103
(4ff#	.	8r	.	(16cc#LL	.	(8aa#L	.	V7
.	.	.	.	16ff#	.	.	.	.
.	.	(8F#L	.	16a#	.	8fff#	.	.
.	.	.	.	16ff#	.	.	.	.
16eeLL	.	8f#J)	.	16cc#	.	8aaa#J)	.	.
16cc#JJ)	.	.	.	16ff#JJ)	.	.	.	.
(8eeL	.	(8F#L	.	(16cc#LL	.	(8aaa#L	.	V2]
.	.	.	.	16ff#	.	.	.	.
8dd)	.	8B)	.	16b	.	8bbb)	.	i6
.	.	.	.	16ff#	.	.	.	.
8bJ	.	8BJ	.	16dd	.	8ff#J	.	i
.	.	.	.	16ff#JJ)	.	.	.	.
=104	=104	=104	=104	=104	=104	=104	=104	=104
(8bL	p	4A	p	4dd#	p	4.ff#	p	i[#viio7/iv
8a#	.	.	.	.	.	.	.	.
8bJ)	.	8r	.	8r	.	.	.	.
4r	.	4r	.	4r	.	(8ddL	.	.
.	.	.	.	.	.	8cc#	.	.
8r	.	8r	.	8r	.	8dd#J)	.	.
=105	=105	=105	=105	=105	=105	=105	=105	=105
(8bL	.	4G	.	4b 4ee	.	4.bb	.	iv6]
8a#	.	.	.	.	.	.	.	.
8bJ)	.	8r	.	8r	.	.	.	.
4r	.	4r	.	4r	.	(8ff#L	.	.
.	.	.	.	.	.	8ee	.	.
8r	.	8r	.	8r	.	8ee#J)	.	.
=106	=106	=106	=106	=106	=106	=106	=106	=106
(8ddL	pp	4b	pp	4ee#	pp	4.gg#	pp	ii[#viio7/V
8b#X	.	.	.	.	.	.	.	.
8cc#J)	.	8r	.	8r	.	.	.	.
4r	.	4r	.	4r	.	(8ff#L	.	.
.	.	.	.	.	.	8ee	.	.
8r	.	8r	.	8r	.	8ee#J)	.	.
=107	=107	=107	=107	=107	=107	=107	=107	=107
(8cc#L	.	4a#	.	4ff#	.	4.ccc#	.	V6]
8b#X	.	.	.	.	.	.	.	.
8cc#J)	.	8r	.	8r	.	.	.	.
4r	.	4r	.	4r	.	(8gg#L	.	.
.	.	.	.	.	.	8ee#	.	.
8r	.	8r	.	8r	.	8ff#J)	.	.
=108	=108	=108	=108	=108	=108	=108	=108	=108
[2.GG	pp	2.r	.	2.r	.	(16ggLL	pp	#viio2
.	.	.	.	.	.	16eeJJ)	.	.
.	.	.	.	.	.	8r	.	.
.	.	.	.	.	.	8r	.	.
.	.	.	.	.	.	(16eeLL	.	.
.	.	.	.	.	.	16cc#JJ)	.	.
.	.	.	.	.	.	8r	.	.
.	.	.	.	.	.	8r	.	.
=109	=109	=109	=109	=109	=109	=109	=109	=109
!LO:TX:b:i:t=cresc.	!	!LO:TX:b:i:t=cresc.	!	!LO:TX:a:i:t=cresc.	!	!LO:TX:b:i:t=cresc.	!	!
2.GG]	.	2.A# 2.c#	.	2.aa#	.	(16ggLL	.	.
.	.	.	.	.	.	16eeJJ)	.	.
.	.	.	.	.	.	8r	.	.
.	.	.	.	.	.	8r	.	.
.	.	.	.	.	.	(16eeLL	.	.
.	.	.	.	.	.	16cc#JJ)	.	.
.	.	.	.	.	.	8r	.	.
.	.	.	.	.	.	8r	.	.
=110	=110	=110	=110	=110	=110	=110	=110	=110
.	.	.	.	.	.	16qqb/LL	f	VI
.	.	.	.	.	.	16qqdd/JJ	.	.
2.GG	f	2.B	f	2.d 2.b	f	4.bb	.	.
.	.	.	.	.	.	(16dddLL	.	.
.	.	.	.	.	.	16bbJ)	.	.
.	.	.	.	.	.	8bbJ	.	.
.	.	.	.	.	.	8r	.	.
=111	=111	=111	=111	=111	=111	=111	=111	=111
2.E	.	2.B 2.e	.	2.g 2.b	.	4.ee 4.bb	.	iv
.	.	.	.	.	.	(16eeeLL	.	.
.	.	.	.	.	.	16bbJ)	.	.
.	.	.	.	.	.	8bbJ	.	.
.	.	.	.	.	.	8r	.	.
=112	=112	=112	=112	=112	=112	=112	=112	=112
2.D#	.	2.B 2.f#	.	2.b 2.ff#	.	4.b 4.ff# 4.bb	.	V6/iv
.	.	.	.	.	.	(16fff#LL	.	.
.	.	.	.	.	.	16bbJ)	.	.
.	.	.	.	.	.	8bbJ	.	.
.	.	.	.	.	.	8r	.	.
=113	=113	=113	=113	=113	=113	=113	=113	=113
!LO:TX:b:i:t=sempre forte	!	!LO:TX:b:i:t=sempre forte	!	!LO:TX:b:i:t=sempre forte	!	!LO:TX:b:i:t=sempre forte	!	!
4E'	.	4B' 4e	.	4b' 4gg	.	(16gggLL	.	iv
.	.	.	.	.	.	16bbJ)	.	.
.	.	.	.	.	.	8bbJ	.	.
8r	.	8r	.	8r	.	8r	.	.
4F#'	.	4F#' 4f#	.	4a#' 4ff#	.	(16fff#LL	.	V
.	.	.	.	.	.	16aa#J)	.	.
.	.	.	.	.	.	8aa#J	.	.
8r	.	8r	.	8r	.	8r	.	.
=114	=114	=114	=114	=114	=114	=114	=114	=114
[4.G	.	[4.B	.	[4.d [4.b	.	4g'	.	VI
.	.	.	.	.	.	[8bb	.	.
4G]	.	4B]	.	4d] 4b]	.	8.bbL]	.	.
.	.	.	.	.	.	(16bbL	.	.
8G	.	8B	.	8d 8b	.	16ddd	.	.
.	.	.	.	.	.	16bbJJ)	.	.
=115	=115	=115	=115	=115	=115	=115	=115	=115
[4.E	.	[4.B [4.e	.	[4.g [4.b	.	4e'	.	iv
.	.	.	.	.	.	[8bb	.	.
4E]	.	4B] 4e]	.	4g] 4b]	.	8.bbL]	.	.
.	.	.	.	.	.	(16bbL	.	.
8E	.	8B 8e	.	8g 8b	.	16eee	.	.
.	.	.	.	.	.	16bbJJ)	.	.
=116	=116	=116	=116	=116	=116	=116	=116	=116
[4.D#	.	[4.B [4.f#	.	[4.b [4.ff#	.	4d#'	.	V6/iv
.	.	.	.	.	.	[8bb	.	.
4D#]	.	4B] 4f#]	.	4b] 4ff#]	.	8.bbL]	.	.
.	.	.	.	.	.	(16bbL	.	.
8D#	.	8B 8f#	.	8b 8ff#	.	16fff#	.	.
.	.	.	.	.	.	16bbJJ)	.	.
=117	=117	=117	=117	=117	=117	=117	=117	=117
4E	.	4c#	.	4b 4gg	.	8bbL	.	ii%65
.	.	.	.	.	.	(8bb	.	.
8E	sf	8c#	sf	8b 8gg	sf	16gggL	sf	.
.	.	.	.	.	.	16bbJJ)	.	.
4F#	.	4cc#	.	4a# 4ff#	.	8aa#L	.	V
.	.	.	.	.	.	(8aa#	.	.
8F#	sf	8cc#	sf	8a# 8ff#	sf	16fff#L	sf	.
.	.	.	.	.	.	16aa#JJ)	.	.
=118	=118	=118	=118	=118	=118	=118	=118	=118
!LO:TX:a:i:t=dim.	!	!LO:TX:b:i:t=dim.	!	!LO:TX:b:i:t=dim.	!	!LO:TX:b:i:t=dim.	!	!
4E	.	4B 4c#	.	4g	.	8bbL	.	ii%65
.	.	.	.	.	.	(8bb	.	.
8E	.	8B 8c#	.	8g	.	16gggL	.	.
.	.	.	.	.	.	16bbJJ)	.	.
4F#	.	4A# 4c#	.	4f#	.	8aa#L	.	V
.	.	.	.	.	.	(8aa#	.	.
8F#	.	8A# 8c#	.	8f#	.	16fff#L	.	.
.	.	.	.	.	.	16aa#JJ)	.	.
=119	=119	=119	=119	=119	=119	=119	=119	=119
4E	p	4B 4c#	p	4g	p	8bL	p	ii%65
.	.	.	.	.	.	(8b	.	.
8E	.	8B 8c#	.	8g	.	16ggL	.	.
.	.	.	.	.	.	16bJJ)	.	.
4F#	.	4B 4c#	.	4g	.	8bL	.	V(42)
.	.	.	.	.	.	(8b	.	.
8F#	.	8B 8c#	.	8g	.	16ggL	.	.
.	.	.	.	.	.	16bJJ)	.	.
=120	=120	=120	=120	=120	=120	=120	=120	=120
2.r	.	2.r	.	2.r	.	2.gg	pp	ii%43
=121	=121	=121	=121	=121	=121	=121	=121	=121
4F#	.	4A# 4c#	.	4f#	.	8a#L	p	V
.	.	.	.	.	.	(8a#	.	.
8F#	.	8A# 8c#	.	8f#	.	16ff#L	.	.
.	.	.	.	.	.	16a#JJ)	.	.
4F#	.	4A# 4c#	.	4f#	.	8a#L	.	.
.	.	.	.	.	.	(8a#	.	.
8F#	.	8A# 8c#	.	8f#	.	16ff#L	.	.
.	.	.	.	.	.	16a#JJ)	.	.
=122	=122	=122	=122	=122	=122	=122	=122	=122
2.r	.	2.r	.	2.r	.	2.ff#	pp	V
=123	=123	=123	=123	=123	=123	=123	=123	=123
4BB	<	(8BL	<	4r	.	(2.ff#	<	#viio43/iv
.	.	8A#	.	.	.	.	.	.
8BB	.	8BJ	.	8r	.	.	.	.
4BB	.	8cXL	.	8d#L	.	.	.	.
.	.	8B	.	(8d#	<	.	.	.
8BB	.	8cJ)	.	16aL	>	.	.	.
.	.	.	.	16d#JJ)	] ]]	.	.	.
=124	=124	=124	=124	=124	=124	=124	=124	=124
4BB	.	(8AL	.	4r	.	4.gg	.	#viio7
.	.	8G#	.	.	.	.	.	.
8BB	.	8AJ	.	8r	.	.	.	.
4BB	[ >	8A#L	.	8eeL	.	4.ccc#)	>]	.
.	.	8G##X	[ >	(8ee	<	.	.	.
8BB	]]	8A#J)	]]	16ggL	.	.	.	.
.	.	.	.	16eeJJ)	>]	.	.	.
=125	=125	=125	=125	=125	=125	=125	=125	=125
4BB	<	(8BL	<	4r	]	(2.ff#	] <	#viio43/iv
.	.	8A#	.	.	.	.	.	.
8BB	.	8BJ	.	8r	.	.	.	.
4BB	.	8cXL	.	8d#L	.	.	.	.
.	.	8B	.	(8d#	<	.	.	.
8BB	.	8cJ)	.	16aL	>	.	.	.
.	.	.	.	16d#JJ)	]]	.	.	.
=126	=126	=126	=126	=126	=126	=126	=126	=126
4BB	.	(8AL	.	4r	]	4.gg	.	#viio7
.	.	8G#	.	.	.	.	.	.
8BB	.	8AJ	.	8r	.	.	.	.
4BB	[ >	8A#L	[ >	8eeL	.	4.ccc#)	[ > ]]	.
.	.	8G##X	.	(8ee	<	.	.	.
8BB	]]	8A#J)	]]	16ggL	>	.	.	.
.	.	.	.	16eeJJ)	]]	.	.	.
=127	=127	=127	=127	=127	=127	=127	=127	=127
4BB	<	8BL	<	4.dd	] <	(4.ff#	<	i
.	.	8A#	.	.	.	.	.	.
8BB	.	8BJ	.	.	.	.	.	.
4BB	.	8BL	.	8eL	.	4gg	.	ii%2
.	.	8A#	.	8e	.	.	.	.
8BB	[ > ]]	8BJ	[ > ]]	16eL	[ >	8ccc#)	[ > ]]	.
.	.	.	.	16c#JJ	]]	.	.	.
=128	=128	=128	=128	=128	=128	=128	=128	=128
4BB	<	(8BL	<	4d	.	(4.ff#	.	i
.	.	8A#	.	.	.	.	.	.
8BB	.	8BJ)	.	(8dd	.	.	.	.
4BB	.	(8BL	.	8eeL)	.	4gg	.	ii%2
.	.	8A#	.	8ee'	.	.	.	.
8BB	[ > ]]	8BJ)	[ > ]]	(16eeL	.	8ccc#)	.	.
.	.	.	.	16cc#JJ)	.	.	.	.
=129	=129	=129	=129	=129	=129	=129	=129	=129
(8BBL	<	(8BL	<	4.dd	.	4.ff#	.	i
8AA#	>	8A#	>	.	.	.	.	.
8BBJ)	]	8BJ)	]	.	.	.	.	.
4r	]	(8ddL	] <	(8bL	<	(8ff#L	<	.
.	.	8ee	>	8a#	.	8gg	>	.
8r	.	8ddJ)	] ]]	8bJ)	>]	8ff#J)	]]	.
=130	=130	=130	=130	=130	=130	=130	=130	=130
!LO:TX:b:i:t=poco ri   -   tar   -   dan   -   do	!	!LO:TX:b:i:t=poco ri   -   tar   -   dan   -   do	!	!LO:TX:b:i:t=poco ri   -   tar   -   dan   -   do	!	!LO:TX:b:i:t=poco ri   -   tar   -   dan   -   do	!	!
(8BBL	p <	(8BL	p <	2.r	]	4r	]	.
8AA#	>	8A#	>	.	.	.	.	.
8BBJ)	]	8BJ)	]	.	.	8r	pp	.
4r	]	4r	]	.	.	(8bL	.	.
.	.	.	.	.	.	8a#	.	.
8r	.	8r	.	.	.	8bJ)	.	.
=131	=131	=131	=131	=131	=131	=131	=131	=131
2.BB	.	2.B	.	2.r	.	2.b	.	.
=132	=132	=132	=132	=132	=132	=132	=132	=132
2.BB 2.F#	ppp	2.f#	ppp	2.d#	ppp	2.b	ppp	I]\\
=133||	=133||	=133||	=133||	=133||	=133||	=133||	=133||	=133||
*k[f#c#g#d#a#]	*	*k[f#c#g#d#a#]	*	*k[f#c#g#d#a#]	*	*k[f#c#g#d#a#]	*	*
*B:	*	*B:	*	*B:	*	*B:	*	*
*M2/2	*	*M2/2	*	*M2/2	*	*M2/2	*	*
*met(c|)	*	*met(c|)	*	*met(c|)	*	*met(c|)	*	*
!	!	!	!	!	!	!LO:TX:b:i:t=sempre piano	!	!
!LO:TX:b:i:t=sempre piano	!	!LO:TX:a:i:t=sempre piano	!	!LO:TX:b:i:t=sempre piano	!	!LO:TX:a:B:t=Allegro.	!	!
8F#L	.	2d#	.	2g##X	.	2b#X	.	V[viio64/vii
8f#	.	.	.	.	.	.	.	.
8f#	.	.	.	.	.	.	.	.
8f#J	.	.	.	.	.	.	.	.
8f#L	.	2e	.	2a#	.	4.cc#	.	viio64
8f#	.	.	.	.	.	.	.	.
8f#	.	.	.	.	.	.	.	.
8f#J	.	.	.	.	.	8cc##X	.	.
=134	=134	=134	=134	=134	=134	=134	=134	=134
!	!	!	!	!	!	!LO:TX:b:i:t=molto leggieramento	!	!
8f#L	.	8f#L	.	8bL	.	8dd#L	.	I
8f#	.	8b	.	8dd#	.	8a#	.	.
8f#	.	8b	.	8dd#	.	8b	.	.
8f#J	.	8bJ	.	8dd#J	.	8g#J	.	.
8f#L	.	8cc#L	.	8eeL	.	8f#L	.	V7
8f#	.	8cc#	.	8ee	.	8g#	.	.
8f#	.	8cc#	.	8ee	.	8a#	.	.
8f#J	.	8cc#J	.	8eeJ	.	8bJ	.	.
=135	=135	=135	=135	=135	=135	=135	=135	=135
8f#L	.	8cc#L	.	8eeL	.	8cc#L	.	.
8f#	.	8cc#	.	8ee	.	8dd#	.	.
8f#	.	8cc#	.	8ee	.	8ee	.	.
8f#J	.	8cc#J	.	8eeJ	.	8ff#J	.	.
8f#L	.	8cc#L	.	8eeL	.	8gg#L	.	.
8f#	.	8cc#	.	8ee	.	8aa#	.	.
8f#	.	8cc#	.	8ee	.	8bb	.	.
8f#J	.	8cc#J	.	8eeJ	.	8ccc#J	.	.
=136	=136	=136	=136	=136	=136	=136	=136	=136
8f#L	.	8bL	.	8dd#L	.	8ddd#L	.	I
8f#	.	8ff#	.	8ccc#	.	8eee	.	.
8f#	.	8ff#	.	8ddd#	.	8fff#	.	.
8f#J	.	8ff#J	.	8eeeJ	.	8ggg#J	.	.
8f#L	.	8ff#L	.	8ddd#L	.	8fff#L	.	.
8f#	.	8ff#	.	8bb	.	8ddd#	.	I]
8f#	.	8ff#	.	8ccc#	.	8eee	.	V7
8f#J	.	8eeJ	.	8aa#J	.	8ccc#J	.	.
=137	=137	=137	=137	=137	=137	=137	=137	=137
!LO:TX:a:i:t=sempre pp	!	!	!	!LO:TX:a:i:t=sempre pp	!	!LO:TX:b:i:t=sempre pp	!	!
8bL	.	4dd#	.	8ff#L	.	8bbL	.	I[I
8b	.	.	.	8dd#	.	8ff#	.	.
8b	.	4r	.	8dd#	.	8ff#	.	.
8bJ	.	.	.	8dd#J	.	8ff#J	.	.
8bL	.	2r	.	8dd#L	.	8bbL	.	III+
8b	.	.	.	8dd#	.	8ff##X	.	.
8b	.	.	.	8dd#	.	8ff##	.	.
8bJ	.	.	.	8dd#J	.	8ff##J	.	.
=138	=138	=138	=138	=138	=138	=138	=138	=138
!	!	!LO:TX:a:i:t=sempre pp	!	!	!	!	!	!
8bL	.	8bL	.	8gg#L	.	8bbL	.	IV
8b	.	8ee	.	8ee	.	8gg#	.	.
8b	.	8ee	.	8ee	.	8gg#	.	.
8bJ	.	8eeJ	.	8eeJ	.	8gg#J	.	.
8bL	.	8cc#L	.	8aa#L	.	8eeeL	.	V7
8b	.	8ff#	.	8ee	.	8aa#	.	.
8b	.	8ff#	.	8ee	.	8aa#	.	.
8bJ	.	8ff#J	.	8eeJ	.	8aa#J	.	.
=139	=139	=139	=139	=139	=139	=139	=139	=139
8bL	.	8dd#L	.	8ff#L	.	8ccc#L	.	I(9)
8b	.	8ff#	.	8dd#	.	8bb	.	I
8b	.	8ff#	.	8dd#	.	8bb	.	.
8bJ	.	8ff#J	.	8dd#J	.	8bbJ	.	.
8bL	.	8ff#L	.	4dd#	.	8bbL	.	III+
8b	.	8dd#	.	.	.	8ff##X	.	.
8b	.	8dd#	.	4r	.	8ff##	.	.
8bJ	.	8dd#J	.	.	.	8ff##J	.	.
=140	=140	=140	=140	=140	=140	=140	=140	=140
8bL	.	8bL	.	8gg#L	.	8bbL	.	IV
8b	.	8ee	.	8ee	.	8gg#	.	.
8b	.	8ee	.	8ee	.	8gg#	.	.
8bJ	.	8eeJ	.	8eeJ	.	8gg#J	.	.
8bL	.	8cc#L	.	8eeL	.	8eeeL	.	V7
8b	.	8ff#	.	8ee	.	8aa#	.	.
8b	.	8ff#	.	8ee	.	8aa#	.	.
8bJ	.	8ff#J	.	8eeJ	.	8aa#J	.	.
=141	=141	=141	=141	=141	=141	=141	=141	=141
!LO:TX:a:i:t=sempre piano	!	!LO:TX:a:i:t=sempre piano	!	!LO:TX:b:i:t=sempre piano	!	!LO:TX:a:i:t=sempre piano	!	!
8bL	.	8ff#L	.	8dd#L	.	4.fff#	.	I]
8b	.	8dd#	.	8bb	.	.	.	.
8b	.	8dd#	.	8bb	.	.	.	.
8bJ	.	8dd#J	.	8bbJ	.	8bbb	.	.
8f#L	.	8eeL	.	8ccc#L	.	8bbbL	.	V7
8f#	.	8ee	.	8ccc#	.	8aaa#	.	.
8f#	.	8ee	.	8ccc#	.	8ggg#	.	.
8f#J	.	8eeJ	.	8ccc#J	.	8fff#J	.	.
=142	=142	=142	=142	=142	=142	=142	=142	=142
8bL	.	8dd#L	.	8bbL	.	4.fff#	.	I
8b	.	8dd#	.	8bb	.	.	.	.
8b	.	8dd#	.	8bb	.	.	.	.
8bJ	.	8dd#J	.	8bbJ	.	8bbb	.	.
8f#L	.	8eeL	.	8ccc#L	.	8bbbL	.	V7
8f#	.	8ee	.	8ccc#	.	8aaa#	.	.
8f#	.	8ee	.	8ccc#	.	8ggg#	.	.
8f#J	.	8eeJ	.	8ccc#J	.	8fff#J	.	.
=143	=143	=143	=143	=143	=143	=143	=143	=143
8bL	.	8dd#L	.	8bbL	.	4.fff#	.	I
8b	.	8dd#	.	8bb	.	.	.	.
8b	.	8dd#	.	8bb	.	.	.	.
8bJ	.	8dd#J	.	8bbJ	.	8bbb	.	.
8f#L	.	8eeL	.	8ccc#L	.	8bbbL	.	V7
8f#	.	8ee	.	8ccc#	.	8aaa#	.	.
8f#	.	8ee	.	8ccc#	.	8ggg#	.	.
8f#J	.	8eeJ	.	8ccc#J	.	8fff#J	.	.
=144	=144	=144	=144	=144	=144	=144	=144	=144
8bL	.	8dd#L	.	8bbL	.	4.fff#	.	I
8b	.	8dd#	.	8bb	.	.	.	.
8b	.	8dd#	.	8bb	.	.	.	.
8bJ	.	8dd#J	.	8bbJ	.	8bbb	.	.
8f#L	.	8cc#L	.	8aa#L	.	8bbbL	.	V
8f#	.	8cc#	.	8aa#	.	8aaa#	.	.
8f#	.	8cc#	.	8aa#	.	8ggg#	.	.
8f#J	.	8cc#J	.	8aa#J	.	8fff#J	.	.
=145	=145	=145	=145	=145	=145	=145	=145	=145
!LO:TX:b:i:t=cresc.	!	!LO:TX:b:i:t=cresc.	!	!LO:TX:b:i:t=cresc.	!	!LO:TX:a:i:t=cresc.	!	!
8g#L	.	8bL	.	8ee#L	.	8bbbL	.	#viio/V
8G#	.	8e#	.	8b	.	8bbb	.	.
8G#	.	8e#	.	8b	.	8aaa#	.	.
8G#J	.	8e#J	.	8bJ	.	8ggg#J	.	.
8G#L	.	8e#L	.	8bL	.	8fff#L	.	.
8G#	.	8e#	.	8b	.	8eee#	.	.
8G#	.	8e#	.	8b	.	8ddd#	.	.
8G#J	.	8e#J	.	8bJ	.	8ccc#J	.	.
=146	=146	=146	=146	=146	=146	=146	=146	=146
8C#L	.	8e#L	.	8g#L	.	8bbL	.	V7/V
8C#	.	8e#	.	8g#	.	8aa#	.	.
8C#	.	8e#	.	8g#	.	8gg#	.	.
8C#J	.	8e#J	.	8g#J	.	8ff#J	.	.
8C#L	.	8e#L	.	8g#L	.	8ee#L	.	.
8C#	.	8e#	.	8g#	.	8dd#	.	.
8C#	.	8e#	.	8g#	.	8cc#	.	.
8C#J	.	8e#J	.	8g#J	.	8bJ	.	.
=147	=147	=147	=147	=147	=147	=147	=147	=147
8F#L	.	8c#L	.	8a#L	.	8a#L	.	V7
8F#	.	8c#	.	8a#	.	8cc#	.	.
8F#	.	8c#	.	8a#	.	8ee	.	.
8F#J	.	8c#J	.	8a#J	.	8ff#J	.	.
8F#L	.	8c#L	.	8eL 8a#	.	8aa#L	.	.
8F#	.	8c#	.	8e 8a#	.	8ccc#	.	.
8F#	.	8c#	.	8e 8a#	.	8eee	.	.
8F#J	.	8c#J	.	8eJ 8a#	.	8eeeJ	.	.
=148	=148	=148	=148	=148	=148	=148	=148	=148
8G#L	.	8BL	.	8d#L 8b	.	8eeeL	.	vi
8G#	.	8B	.	8d# 8b	.	8ddd#	.	.
8G#	.	8B	.	8d# 8b	.	8eee	.	.
8G#J	.	8BJ	.	8d#J 8b	.	8fff#J	.	.
8EL	.	8eL	.	8g#L 8b	.	8ggg#L	.	IV
8E	.	8e	.	8g# 8b	.	8aaa#	.	.
8E	.	8e	.	8g# 8b	.	8bbb	.	.
8EJ	.	8eJ	.	8g#J 8b	.	8bbbJ	.	.
=149	=149	=149	=149	=149	=149	=149	=149	=149
8F#L	.	8f#L	.	8bL 8dd#	.	4bbb'	.	V(64)
8F#	.	8f#	.	8dd# 8bb	.	.	.	.
8F#	.	8f#	.	8dd# 8bb	.	4cccc#'	.	.
8F#J	.	8f#J	.	8dd#J 8bb	.	.	.	.
8F#L	.	8f#L	.	8dd#L 8bb	.	4dddd#'	.	.
8F#	.	8f#	.	8dd# 8bb	.	.	.	.
8F#	.	8f#	.	8dd# 8bb	.	4eeee'	.	.
8F#J	.	8f#J	.	8dd#J 8bb	.	.	.	.
=150	=150	=150	=150	=150	=150	=150	=150	=150
!	!LO:DY:a	!	!LO:DY:a	!	!	!	!	!
8FF#L	f f	8F#L 8f#	f	8cc#L 8aa#	.	8ffff#'L	f	V7
8FF#	.	8F# 8f#	.	8cc# 8aa#	.	(8aa#	.	.
8FF#	.	8F# 8f#	.	8cc# 8aa#	.	8ggg#	.	.
8FF#J	.	8F#J 8f#	.	8cc#J 8aa#	.	8fff#J)	.	.
8FF#L	.	8F#L 8f#	.	8cc#L 8aa#	.	(8fff#L	.	.
8FF#	.	8F# 8f#	.	8cc# 8aa#	.	8eee	.	.
8FF#	.	8F# 8f#	.	8cc# 8aa#	.	8ddd#	.	.
8FF#J	.	8F#J 8f#	.	8cc#J 8aa#	.	8ccc#J)	.	.
=151	=151	=151	=151	=151	=151	=151	=151	=151
4BB	.	4B 4f#	.	4dd# 4bb	.	4bb	.	I\\
4r	.	4r	.	4r	.	4r	.	.
4BB	.	4b	.	4aaX	.	4ddd#	.	V7/IV
8r	.	8r	.	8r	.	8r	.	.
8BB	.	8B	.	8aa	.	8ddd#	.	.
=152	=152	=152	=152	=152	=152	=152	=152	=152
4E	.	4e	.	4gg#	.	4eee	.	IV
4r	.	4r	.	4r	.	4r	.	.
4BB	.	4b	.	4aaX	.	4ddd#	.	V7/IV
8r	.	8r	.	8r	.	8r	.	.
8BB	.	8B	.	8aa	.	8ddd#	.	.
=153	=153	=153	=153	=153	=153	=153	=153	=153
4E	.	4e	.	4gg#	.	4eee	.	IV
4r	.	4r	.	4r	.	4r	.	.
4C#	.	4b	.	4gg#	.	4eee#	.	V7/V
8r	.	8r	.	8r	.	8r	.	.
8C#	.	8c#	.	8gg#	.	8eee#	.	.
=154	=154	=154	=154	=154	=154	=154	=154	=154
4FF#	.	4cc#	.	4aa#	.	4fff#	.	V
4r	.	4r	.	4r	.	4r	.	.
4C#	.	4ee#	.	4gg#	.	4bbb	.	V7/V
8r	.	8r	.	8r	.	8r	.	.
8C#	.	8ee#	.	8gg#	.	8bbb	.	.
=155	=155	=155	=155	=155	=155	=155	=155	=155
4FF#	.	4a# 4ff#	.	4ff# 4aa#	.	8aaa#L	fp	V
.	.	.	.	.	.	8fff#	.	.
4r	.	4r	.	4r	.	8fff#	.	.
.	.	.	.	.	.	8fff#J	.	.
2r	.	2r	.	2r	.	8fff#L	.	.
.	.	.	.	.	.	8fff#	.	.
.	.	.	.	.	.	8fff#	.	.
.	.	.	.	.	.	8fff#J	.	.
=156	=156	=156	=156	=156	=156	=156	=156	=156
!	!	!	!	!	!	!LO:TX:b:i:t=sempre piano	!	!
1r	.	2B#X	p	1r	.	4eee'	.	ii(#7)
.	.	.	.	.	.	2eee	.	ii
.	.	4.c#	.	.	.	.	.	.
.	.	.	.	.	.	4aa#	.	V
.	.	8c##X	.	.	.	.	.	.
=157	=157	=157	=157	=157	=157	=157	=157	=157
1r	.	8d#L	.	1r	.	4bb'	.	I
.	.	8A#	.	.	.	.	.	.
.	.	8B	.	.	.	2bb	.	.
.	.	8G#J	.	.	.	.	.	.
.	.	8F#L	.	.	.	.	.	.
.	.	8G#	.	.	.	.	.	.
.	.	8A#	.	.	.	4ff#	.	.
.	.	8BJ	.	.	.	.	.	.
=158	=158	=158	=158	=158	=158	=158	=158	=158
1r	.	8c#L	.	1r	.	4ee	.	V7
.	.	8d#	.	.	.	.	.	.
.	.	8e	.	.	.	2ee	.	.
.	.	8f#J	.	.	.	.	.	.
.	.	8g#L	.	.	.	.	.	.
.	.	8a#	.	.	.	.	.	.
.	.	8b	.	.	.	4a#	.	.
.	.	8cc#J	.	.	.	.	.	.
=159	=159	=159	=159	=159	=159	=159	=159	=159
1r	.	8dd#L	.	1r	.	4b	.	I
.	.	8ee	.	.	.	.	.	.
.	.	8ff#	.	.	.	2b	.	.
.	.	8gg#J	.	.	.	.	.	.
.	.	4ff#	.	.	.	.	.	.
.	.	4r	.	.	.	4f#	.	.
=160	=160	=160	=160	=160	=160	=160	=160	=160
2BB#X	p	4ee'	p	4eee'	p	1r	.	ii
.	.	2ee	.	2eee	.	.	.	.
4.C#	.	.	.	.	.	.	.	.
.	.	4a#	.	4aa#	.	.	.	.
8C##X	.	.	.	.	.	.	.	.
=161	=161	=161	=161	=161	=161	=161	=161	=161
8D#L	.	4b'	.	4bb'	.	(2ccc##X	<	I(#9)
8AA#	.	.	.	.	.	.	.	.
8BB	.	2b	.	2bb	.	.	.	.
8GG#J	.	.	.	.	.	.	.	.
8FF#L	.	.	.	.	.	4ddd#	.	V(64)
8GG#	.	.	.	.	.	.	.	.
8AA#	.	4f#	.	4ff#	.	4bb)	[ > ]]	.
8BBJ	.	.	.	.	.	.	.	.
=162	=162	=162	=162	=162	=162	=162	=162	=162
8C#L	.	4e	.	4ee	.	1r	.	V7
8D#	.	.	.	.	.	.	.	.
8E	.	2e	.	2ee	.	.	.	.
8F#J	.	.	.	.	.	.	.	.
8G#L	.	.	.	.	.	.	.	.
8A#	.	.	.	.	.	.	.	.
8B	.	4A#	.	4a#	.	.	.	.
8c#J	.	.	.	.	.	.	.	.
=163	=163	=163	=163	=163	=163	=163	=163	=163
8d#L	.	4B	.	4b	.	(2aaa#	<	I(7)
8e	.	.	.	.	.	.	.	.
8f#	.	2B	.	2b	.	.	.	.
8g#J	.	.	.	.	.	.	.	.
4f#	.	.	.	.	.	4bbb	.	I
4r	.	4F#	.	4f#	.	4fff#)	[ > ]]	.
=164	=164	=164	=164	=164	=164	=164	=164	=164
!LO:TX:a:i:t=cresc.	!	!LO:TX:b:i:t=cresc.	!	!LO:TX:a:i:t=cresc.	!	!LO:TX:a:i:t=cresc.	!	!
4E	.	8A#L	.	2b#X	.	2bb#X	.	V2(+4)
.	.	8F#	.	.	.	.	.	.
2E	.	8A#	.	.	.	.	.	.
.	.	8F#J	.	.	.	.	.	.
.	.	8A#L	.	4.cc#	.	4.ccc#	.	V7
.	.	8F#	.	.	.	.	.	.
4FF#	.	8A#	.	.	.	.	.	.
.	.	8F#J	.	8cc##X	.	8ccc##X	.	.
=165	=165	=165	=165	=165	=165	=165	=165	=165
4D#	.	8BL	.	8dd#L	.	8ddd#L	.	I6
.	.	8F#	.	8a#	.	8aa#	.	.
2D#	.	8B	.	8b	.	8bb	.	.
.	.	8F#J	.	8g#J	.	8gg#J	.	.
.	.	8BL	.	8f#L	.	8ff#L	.	.
.	.	8F#	.	8g#	.	8gg#	.	.
4FF#	.	8B	.	8a#	.	8aa#	.	I64
.	.	8F#J	.	8bJ	.	8bbJ	.	.
=166	=166	=166	=166	=166	=166	=166	=166	=166
4E	.	8A#L	.	2b#X	.	2bb#X	.	V2(+4)
.	.	8F#	.	.	.	.	.	.
2E	.	8A#	.	.	.	.	.	.
.	.	8F#J	.	.	.	.	.	.
.	.	8A#L	.	4.cc#	.	4.ccc#	.	V7
.	.	8F#	.	.	.	.	.	.
4FF#	.	8A#	.	.	.	.	.	.
.	.	8F#J	.	8cc##X	.	8ccc##X	.	.
=167	=167	=167	=167	=167	=167	=167	=167	=167
4D#	.	8BL	.	8dd#L	.	8ddd#L	.	I6
.	.	8F#	.	8a#	.	8aa#	.	.
2D#	.	8B	.	8b	.	8bb	.	.
.	.	8F#J	.	8g#J	.	8gg#J	.	.
.	.	8BL	.	8f#L	.	8ff#L	.	.
.	.	8F#	.	8g#	.	8gg#	.	.
4FF#	.	8B	.	8a#	.	8aa#	.	I64
.	.	8F#J	.	8bJ	.	8bbJ	.	.
=168	=168	=168	=168	=168	=168	=168	=168	=168
2BB#X	f	2B#X	f	2b#X	f	2bb#X	f	@none
4.C#	.	4.c#	.	4.cc#	.	4.ccc#	.	V7
8C##X	.	8c##X	.	8cc##X	.	8ccc##X	.	.
=169	=169	=169	=169	=169	=169	=169	=169	=169
8D#L	.	8d#L	.	8dd#L	.	8ddd#L	.	I6
8AA#	.	8A#	.	8a#	.	8aa#	.	.
8BB	.	8B	.	8b	.	8bb	.	.
8GG#J	.	8G#J	.	8g#J	.	8gg#J	.	.
8FF#L	.	8F#L	.	8f#L	.	8ff#L	.	V7
8GG#	.	8G#	.	8g#	.	8gg#	.	.
8AA#	.	8A#	.	8a#	.	8aa#	.	.
8BBJ	.	8BJ	.	8bJ	.	8bbJ	.	.
=170	=170	=170	=170	=170	=170	=170	=170	=170
8C#L	.	8c#L	.	8cc#L	.	8ccc#L	.	.
8D#	.	8d#	.	8dd#	.	8ddd#	.	.
8E	.	8e	.	8ee	.	8eee	.	.
8F#J	.	8f#J	.	8ff#J	.	8fff#J	.	.
8F#L	.	8f#L	.	8gg#L	.	8ggg#L	.	.
8F#	.	8f#	.	8ff#	.	8aaa#	.	.
8F#	.	8f#	.	8gg#	.	8bbb	.	.
8F#J	.	8f#J	.	8aa#J	.	8cccc#J	.	.
=171	=171	=171	=171	=171	=171	=171	=171	=171
4B	.	4f#	.	4bb	.	4dddd#'	.	I
4r	.	4r	.	4r	.	4eeee'	.	.
2r	.	2r	.	2r	.	4ffff#'	.	.
.	.	.	.	.	.	4r	.	.
=172	=172	=172	=172	=172	=172	=172	=172	=172
8c#L	p	8eL	p	8a#L	p	1r	.	V7
8d#	.	8f#	.	8b	.	.	.	.
8e	.	8g#	.	8cc#	.	.	.	.
8f#J	.	8a#J	.	8dd#J	.	.	.	.
8g#L	.	8bL	.	8eeL	.	.	.	.
8a#	.	8cc#	.	8ff#	.	.	.	.
8b	.	8dd#	.	8gg#	.	.	.	.
8cc#J	.	8eeJ	.	8aa#J	.	.	.	.
=173	=173	=173	=173	=173	=173	=173	=173	=173
!LO:TX:a:i:t=cresc.	!	!LO:TX:a:i:t=cresc.	!	!LO:TX:a:i:t=cresc.	!	!LO:TX:b:i:t=cresc.	!	!
4dd#	.	4ff#'	.	4bb'	.	8bL	p	I
.	.	.	.	.	.	8cc#	.	.
4r	.	4aa#'	.	4ccc#'	.	8dd#	.	.
.	.	.	.	.	.	8eeJ	.	.
2r	.	4bb'	.	4ddd#'	.	8ff#L	.	.
.	.	.	.	.	.	8gg#	.	.
.	.	4r	.	4r	.	8aa#	.	.
.	.	.	.	.	.	8bbJ	.	.
=174	=174	=174	=174	=174	=174	=174	=174	=174
8F#L	f	8c#L	f	8cc#L	f	8aa#L	f	V
8E	.	8d#	.	8dd#	.	8bb	.	.
8D#	.	8e	.	8ee	.	8ccc#	.	.
8C#J	.	8f#J	.	8ff#J	.	8ddd#J	.	.
8BBL	.	8g#L	.	8gg#L	.	8eeeL	.	.
8AA#	.	8a#	.	8aa#	.	8fff#	.	.
8GG#	.	8b	.	8bb	.	8ggg#	.	.
8FF#J	.	8cc#J	.	8ccc#J	.	8aaa#J	.	.
=175	=175	=175	=175	=175	=175	=175	=175	=175
4BB	.	4d# 4b	.	4dd# 4bb	.	4bbb	.	I\\
4r	.	4r	.	4r	.	4r	.	.
2r	.	2r	.	2r	.	2r	.	.
==	==	==	==	==	==	==	==	==
*-	*-	*-	*-	*-	*-	*-	*-	*-
!!!system-decoration: [(s1,s2,s3,s4)]
